(.../EAGLE/ulps/pcb-gcode/pcb-gcode.ulp)
(Copyright 2005 - 2012 by John Johnson)
(See readme.txt for licensing terms.)
(This file generated from the board:)
(.../projects/Handbrake/Handbrake.brd)
(Current profile is .../pcb-gcode-3.6.2.4/profiles/grbl-NuggetMill.pp  )
(This file generated 10/8/2021 11:25 PM)
(Settings from pcb-machine.h)
(spindle on time = 0.0000)
(  Tool Size)
(0.200000 )
(spindle speed = 12000.0000)
(tool change at 0.000000 0.000000 12.700000 )
(feed rate xy = F60    )
(feed rate z  = F100   )
(Z Axis Settings)
(  High     Up        Down     Drill)
(12.700000 	1.000000 	-0.050000 	-1.700000 )
(Settings from pcb-defaults.h)
(isolate min = 0.0254)
(isolate max = 0.1000)
(isolate step = 0.1000)
(Generated top outlines, top drill, )
(Unit of measure: mm)
(Metric Mode)
G21
(Absolute Coordinates)
G90
G0 Z12.700000 
G0 X0.000000 Y0.000000 
M3
G4 P0
G0 Z1.000000 
G0 X8.373053 Y11.787434 
G1 Z-0.050000 F100   
G1 X8.329794 Y11.862362 F60    
G1 X8.307400 Y11.945937 
G1 X8.307400 Y17.696259 
G1 X8.329794 Y17.779834 
G1 X8.373053 Y17.854762 
G1 X8.434234 Y17.915944 
G1 X11.990400 Y21.472106 
G1 X11.990400 Y21.654597 
G1 X11.898656 Y21.692597 
G1 X11.753316 Y21.789709 
G1 X11.629709 Y21.913316 
G1 X11.532597 Y22.058656 
G1 X11.465703 Y22.220153 
G1 X11.431600 Y22.391597 
G1 X11.431600 Y24.090400 
G1 X11.465703 Y24.261844 
G1 X11.532597 Y24.423341 
G1 X11.629709 Y24.568681 
G1 X11.753316 Y24.692287 
G1 X11.898656 Y24.789400 
G1 X12.060153 Y24.856294 
G1 X12.231597 Y24.890397 
G1 X12.406400 Y24.890397 
G1 X12.577844 Y24.856294 
G1 X12.739341 Y24.789400 
G1 X12.884681 Y24.692287 
G1 X13.008287 Y24.568681 
G1 X13.105400 Y24.423341 
G1 X13.172294 Y24.261844 
G1 X13.206397 Y24.090400 
G1 X13.206397 Y22.391597 
G1 X13.172294 Y22.220153 
G1 X13.105400 Y22.058656 
G1 X13.008287 Y21.913316 
G1 X12.884681 Y21.789709 
G1 X12.739341 Y21.692597 
G1 X12.647597 Y21.654597 
G1 X12.647597 Y21.292738 
G1 X12.625203 Y21.209163 
G1 X12.581944 Y21.134234 
G1 X12.520763 Y21.073053 
G1 X8.964597 Y17.516887 
G1 X8.964597 Y12.317797 
G1 X9.895100 Y12.317797 
G1 X9.895100 Y12.814144 
G1 X9.914191 Y12.860231 
G1 X9.949466 Y12.895506 
G1 X9.995553 Y12.914597 
G1 X11.848444 Y12.914597 
G1 X11.894531 Y12.895506 
G1 X11.929806 Y12.860231 
G1 X11.948897 Y12.814144 
G1 X11.948897 Y12.317797 
G1 X19.103587 Y12.317797 
G1 X21.388400 Y14.602609 
G1 X21.388400 Y14.778100 
G1 X21.320966 Y14.797191 
G1 X21.285691 Y14.832466 
G1 X21.266600 Y14.878553 
G1 X21.266600 Y16.453444 
G1 X21.285691 Y16.499531 
G1 X21.320966 Y16.534806 
G1 X21.367053 Y16.553897 
G1 X22.066944 Y16.553897 
G1 X22.113031 Y16.534806 
G1 X22.148306 Y16.499531 
G1 X22.167397 Y16.453444 
G1 X22.167397 Y16.101997 
G1 X24.830100 Y16.101997 
G1 X24.830100 Y16.433344 
G1 X24.849191 Y16.479431 
G1 X24.884466 Y16.514706 
G1 X24.930553 Y16.533797 
G1 X25.579400 Y16.533797 
G1 X25.579400 Y18.378500 
G1 X25.273453 Y18.378500 
G1 X25.227366 Y18.397591 
G1 X25.192091 Y18.432866 
G1 X25.173000 Y18.478953 
G1 X25.173000 Y20.433844 
G1 X25.192091 Y20.479931 
G1 X25.227366 Y20.515206 
G1 X25.273453 Y20.534297 
G1 X26.593344 Y20.534297 
G1 X26.639431 Y20.515206 
G1 X26.674706 Y20.479931 
G1 X26.693797 Y20.433844 
G1 X26.693797 Y18.478953 
G1 X26.674706 Y18.432866 
G1 X26.639431 Y18.397591 
G1 X26.593344 Y18.378500 
G1 X26.236597 Y18.378500 
G1 X26.236597 Y16.533797 
G1 X26.885444 Y16.533797 
G1 X26.931531 Y16.514706 
G1 X26.966806 Y16.479431 
G1 X26.985897 Y16.433344 
G1 X26.985897 Y15.113453 
G1 X26.966806 Y15.067366 
G1 X26.931531 Y15.032091 
G1 X26.885444 Y15.013000 
G1 X24.930553 Y15.013000 
G1 X24.884466 Y15.032091 
G1 X24.849191 Y15.067366 
G1 X24.830100 Y15.113453 
G1 X24.830100 Y15.444800 
G1 X22.167397 Y15.444800 
G1 X22.167397 Y14.878553 
G1 X22.148306 Y14.832466 
G1 X22.113031 Y14.797191 
G1 X22.066944 Y14.778100 
G1 X22.045597 Y14.423238 
G1 X22.023203 Y14.339662 
G1 X21.979944 Y14.264734 
G1 X19.441463 Y11.726253 
G1 X19.366534 Y11.682994 
G1 X19.282959 Y11.660600 
G1 X14.255303 Y11.660600 
G1 X18.546219 Y7.369688 
G1 X29.002981 Y7.369688 
G1 X32.712706 Y11.079413 
G1 X32.674703 Y11.171153 
G1 X32.640600 Y11.342597 
G1 X32.640600 Y11.517400 
G1 X32.674703 Y11.688844 
G1 X32.741597 Y11.850341 
G1 X32.838709 Y11.995681 
G1 X32.962316 Y12.119288 
G1 X33.107656 Y12.216400 
G1 X33.269153 Y12.283294 
G1 X33.440597 Y12.317397 
G1 X35.139400 Y12.317397 
G1 X35.310844 Y12.283294 
G1 X35.472341 Y12.216400 
G1 X35.617681 Y12.119288 
G1 X35.741287 Y11.995681 
G1 X35.838400 Y11.850341 
G1 X35.905294 Y11.688844 
G1 X35.939397 Y11.517400 
G1 X35.939397 Y11.342597 
G1 X35.905294 Y11.171153 
G1 X35.838400 Y11.009656 
G1 X35.741287 Y10.864316 
G1 X35.617681 Y10.740709 
G1 X35.472341 Y10.643597 
G1 X35.310844 Y10.576703 
G1 X35.139400 Y10.542600 
G1 X33.440597 Y10.542600 
G1 X33.269153 Y10.576703 
G1 X33.177413 Y10.614706 
G1 X29.402034 Y6.839328 
G1 X29.340853 Y6.778144 
G1 X29.265925 Y6.734884 
G1 X29.182350 Y6.712491 
G1 X18.366847 Y6.712491 
G1 X18.283272 Y6.734884 
G1 X18.208344 Y6.778144 
G1 X18.147163 Y6.839325 
G1 X13.325891 Y11.660600 
G1 X11.948897 Y11.660600 
G1 X11.948897 Y11.164253 
G1 X11.929806 Y11.118166 
G1 X11.894531 Y11.082891 
G1 X11.848444 Y11.063800 
G1 X9.995553 Y11.063800 
G1 X9.949466 Y11.082891 
G1 X9.914191 Y11.118166 
G1 X9.895100 Y11.164253 
G1 X9.895100 Y11.660600 
G1 X8.592738 Y11.660600 
G1 X8.509163 Y11.682994 
G1 X8.434234 Y11.726253 
G1 X8.373053 Y11.787434 
G0 Z1.000000 
G0 X9.914191 Y13.962166 
G1 Z-0.050000 F100   
G1 X9.895100 Y14.008253 F60    
G1 X9.895100 Y15.658144 
G1 X9.914191 Y15.704231 
G1 X9.949466 Y15.739506 
G1 X9.995553 Y15.758597 
G1 X10.593400 Y15.758597 
G1 X10.593400 Y16.883459 
G1 X10.615794 Y16.967034 
G1 X10.659053 Y17.041963 
G1 X10.720234 Y17.103144 
G1 X10.795162 Y17.146403 
G1 X10.878737 Y17.168797 
G1 X13.552500 Y17.168797 
G1 X13.552500 Y17.500144 
G1 X13.571591 Y17.546231 
G1 X13.606866 Y17.581506 
G1 X13.652953 Y17.600597 
G1 X15.607844 Y17.600597 
G1 X15.653931 Y17.581506 
G1 X15.689206 Y17.546231 
G1 X15.708297 Y17.500144 
G1 X15.708297 Y16.180253 
G1 X15.689206 Y16.134166 
G1 X15.653931 Y16.098891 
G1 X15.607844 Y16.079800 
G1 X13.652953 Y16.079800 
G1 X13.606866 Y16.098891 
G1 X13.571591 Y16.134166 
G1 X13.552500 Y16.180253 
G1 X13.552500 Y16.511600 
G1 X11.250597 Y16.511600 
G1 X11.250597 Y15.758597 
G1 X11.848444 Y15.758597 
G1 X11.894531 Y15.739506 
G1 X11.929806 Y15.704231 
G1 X11.948897 Y15.658144 
G1 X11.948897 Y14.008253 
G1 X11.929806 Y13.962166 
G1 X11.894531 Y13.926891 
G1 X11.848444 Y13.907800 
G1 X9.995553 Y13.907800 
G1 X9.949466 Y13.926891 
G1 X9.914191 Y13.962166 
G0 Z1.000000 
G0 X13.552500 Y14.198144 
G1 Z-0.050000 F100   
G1 X13.571591 Y14.244231 F60    
G1 X13.606866 Y14.279506 
G1 X13.652953 Y14.298597 
G1 X15.607844 Y14.298597 
G1 X15.653931 Y14.279506 
G1 X15.689206 Y14.244231 
G1 X15.708297 Y14.198144 
G1 X15.708297 Y13.866797 
G1 X19.128587 Y13.866797 
G1 X20.056638 Y14.794844 
G1 X20.015691 Y14.832466 
G1 X19.996600 Y14.878553 
G1 X19.996600 Y16.453444 
G1 X20.015691 Y16.499531 
G1 X20.050966 Y16.534806 
G1 X20.097053 Y16.553897 
G1 X20.796944 Y16.553897 
G1 X20.843031 Y16.534806 
G1 X20.878306 Y16.499531 
G1 X20.897397 Y16.453444 
G1 X20.897397 Y14.878553 
G1 X20.878306 Y14.832466 
G1 X20.843031 Y14.797191 
G1 X20.796944 Y14.778100 
G1 X20.775597 Y14.677238 
G1 X20.753203 Y14.593663 
G1 X20.709944 Y14.518734 
G1 X19.466462 Y13.275253 
G1 X19.391534 Y13.231994 
G1 X19.307959 Y13.209600 
G1 X15.708297 Y13.209600 
G1 X15.708297 Y12.878253 
G1 X15.689206 Y12.832166 
G1 X15.653931 Y12.796891 
G1 X15.607844 Y12.777800 
G1 X13.652953 Y12.777800 
G1 X13.606866 Y12.796891 
G1 X13.571591 Y12.832166 
G1 X13.552500 Y12.878253 
G1 X13.552500 Y14.198144 
G0 Z1.000000 
G0 X17.475691 Y14.832466 
G1 Z-0.050000 F100   
G1 X17.456600 Y14.878553 F60    
G1 X17.456600 Y16.453444 
G1 X17.475691 Y16.499531 
G1 X17.510966 Y16.534806 
G1 X17.557053 Y16.553897 
G1 X17.578400 Y18.583687 
G1 X14.657241 Y21.504850 
G1 X14.596053 Y21.566034 
G1 X14.552794 Y21.640963 
G1 X14.438656 Y21.692597 
G1 X14.293316 Y21.789709 
G1 X14.169709 Y21.913316 
G1 X14.072597 Y22.058656 
G1 X14.005703 Y22.220153 
G1 X13.971600 Y22.391597 
G1 X13.971600 Y24.090400 
G1 X14.005703 Y24.261844 
G1 X14.072597 Y24.423341 
G1 X14.169709 Y24.568681 
G1 X14.293316 Y24.692287 
G1 X14.438656 Y24.789400 
G1 X14.600153 Y24.856294 
G1 X14.771597 Y24.890397 
G1 X14.946400 Y24.890397 
G1 X15.117844 Y24.856294 
G1 X15.279341 Y24.789400 
G1 X15.424681 Y24.692287 
G1 X15.548288 Y24.568681 
G1 X15.645400 Y24.423341 
G1 X15.712294 Y24.261844 
G1 X15.746397 Y24.090400 
G1 X15.746397 Y22.391597 
G1 X15.712294 Y22.220153 
G1 X15.645400 Y22.058656 
G1 X15.548288 Y21.913316 
G1 X15.424681 Y21.789709 
G1 X15.351012 Y21.740491 
G1 X18.169944 Y18.921563 
G1 X18.213203 Y18.846634 
G1 X18.235597 Y18.763059 
G1 X18.235597 Y16.553897 
G1 X18.303031 Y16.534806 
G1 X18.338306 Y16.499531 
G1 X18.357397 Y16.453444 
G1 X18.357397 Y14.878553 
G1 X18.338306 Y14.832466 
G1 X18.303031 Y14.797191 
G1 X18.256944 Y14.778100 
G1 X17.557053 Y14.778100 
G1 X17.510966 Y14.797191 
G1 X17.475691 Y14.832466 
G0 Z1.000000 
G0 X18.745691 Y14.832466 
G1 Z-0.050000 F100   
G1 X18.726600 Y14.878553 F60    
G1 X18.726600 Y16.453444 
G1 X18.745691 Y16.499531 
G1 X18.780966 Y16.534806 
G1 X18.827053 Y16.553897 
G1 X18.848400 Y18.559859 
G1 X18.870794 Y18.643434 
G1 X18.914053 Y18.718363 
G1 X19.853853 Y19.658162 
G1 X19.915034 Y19.719344 
G1 X19.989963 Y19.762603 
G1 X20.073538 Y19.784997 
G1 X21.871000 Y19.784997 
G1 X21.871000 Y20.433844 
G1 X21.890091 Y20.479931 
G1 X21.925366 Y20.515206 
G1 X21.971453 Y20.534297 
G1 X22.302800 Y20.534297 
G1 X22.302800 Y20.769659 
G1 X22.325194 Y20.853234 
G1 X22.368453 Y20.928162 
G1 X24.258600 Y22.818309 
G1 X24.258600 Y24.090400 
G1 X24.292703 Y24.261844 
G1 X24.359597 Y24.423341 
G1 X24.456709 Y24.568681 
G1 X24.580316 Y24.692287 
G1 X24.725656 Y24.789400 
G1 X24.887153 Y24.856294 
G1 X25.058597 Y24.890397 
G1 X25.233400 Y24.890397 
G1 X25.404844 Y24.856294 
G1 X25.566341 Y24.789400 
G1 X25.711681 Y24.692287 
G1 X25.835287 Y24.568681 
G1 X25.932400 Y24.423341 
G1 X25.999294 Y24.261844 
G1 X26.033397 Y24.090400 
G1 X26.033397 Y22.391597 
G1 X25.999294 Y22.220153 
G1 X25.932400 Y22.058656 
G1 X25.835287 Y21.913316 
G1 X25.711681 Y21.789709 
G1 X25.566341 Y21.692597 
G1 X25.404844 Y21.625703 
G1 X25.233400 Y21.591600 
G1 X25.058597 Y21.591600 
G1 X24.887153 Y21.625703 
G1 X24.725656 Y21.692597 
G1 X24.580316 Y21.789709 
G1 X24.456709 Y21.913316 
G1 X24.387144 Y22.017434 
G1 X22.959997 Y20.590287 
G1 X22.959997 Y20.534297 
G1 X23.291344 Y20.534297 
G1 X23.337431 Y20.515206 
G1 X23.372706 Y20.479931 
G1 X23.391797 Y20.433844 
G1 X23.391797 Y18.478953 
G1 X23.372706 Y18.432866 
G1 X23.337431 Y18.397591 
G1 X23.291344 Y18.378500 
G1 X21.971453 Y18.378500 
G1 X21.925366 Y18.397591 
G1 X21.890091 Y18.432866 
G1 X21.871000 Y18.478953 
G1 X21.871000 Y19.127800 
G1 X20.252909 Y19.127800 
G1 X19.505597 Y18.380488 
G1 X19.505597 Y16.553897 
G1 X19.573031 Y16.534806 
G1 X19.608306 Y16.499531 
G1 X19.627397 Y16.453444 
G1 X19.627397 Y14.878553 
G1 X19.608306 Y14.832466 
G1 X19.573031 Y14.797191 
G1 X19.526944 Y14.778100 
G1 X18.827053 Y14.778100 
G1 X18.780966 Y14.797191 
G1 X18.745691 Y14.832466 
G0 Z1.000000 
G0 X18.780966 Y11.110806 
G1 Z-0.050000 F100   
G1 X18.827053 Y11.129897 F60    
G1 X19.526944 Y11.129897 
G1 X19.573031 Y11.110806 
G1 X19.608306 Y11.075531 
G1 X19.627397 Y11.029444 
G1 X19.627397 Y9.454553 
G1 X19.608306 Y9.408466 
G1 X19.573031 Y9.373191 
G1 X19.993709 Y8.944497 
G1 X28.037788 Y8.944497 
G1 X32.712706 Y13.619412 
G1 X32.674703 Y13.711153 
G1 X32.640600 Y13.882597 
G1 X32.640600 Y14.057400 
G1 X32.674703 Y14.228844 
G1 X32.741597 Y14.390341 
G1 X32.838709 Y14.535681 
G1 X32.962316 Y14.659287 
G1 X33.107656 Y14.756400 
G1 X33.269153 Y14.823294 
G1 X33.440597 Y14.857397 
G1 X35.139400 Y14.857397 
G1 X35.310844 Y14.823294 
G1 X35.472341 Y14.756400 
G1 X35.617681 Y14.659287 
G1 X35.741287 Y14.535681 
G1 X35.838400 Y14.390341 
G1 X35.905294 Y14.228844 
G1 X35.939397 Y14.057400 
G1 X35.939397 Y13.882597 
G1 X35.905294 Y13.711153 
G1 X35.838400 Y13.549656 
G1 X35.741287 Y13.404316 
G1 X35.617681 Y13.280709 
G1 X35.472341 Y13.183597 
G1 X35.310844 Y13.116703 
G1 X35.139400 Y13.082600 
G1 X33.440597 Y13.082600 
G1 X33.269153 Y13.116703 
G1 X33.177413 Y13.154706 
G1 X28.436844 Y8.414134 
G1 X28.375663 Y8.352953 
G1 X28.300734 Y8.309694 
G1 X28.217159 Y8.287300 
G1 X19.814338 Y8.287300 
G1 X19.730763 Y8.309694 
G1 X19.655834 Y8.352953 
G1 X18.975234 Y9.033553 
G1 X18.914053 Y9.094734 
G1 X18.870794 Y9.169662 
G1 X18.848400 Y9.253237 
G1 X18.848400 Y9.354100 
G1 X18.780966 Y9.373191 
G1 X18.745691 Y9.408466 
G1 X18.726600 Y9.454553 
G1 X18.726600 Y10.179331 
G1 X18.721400 Y10.285259 
G1 X18.726600 Y11.029444 
G1 X18.745691 Y11.075531 
G1 X18.780966 Y11.110806 
G0 Z1.000000 
G0 X18.338306 Y11.075531 
G1 Z-0.050000 F100   
G1 X18.357397 Y11.029444 F60    
G1 X18.357397 Y9.454553 
G1 X18.338306 Y9.408466 
G1 X18.303031 Y9.373191 
G1 X18.256944 Y9.354100 
G1 X17.557053 Y9.354100 
G1 X17.510966 Y9.373191 
G1 X17.475691 Y9.408466 
G1 X17.456600 Y9.454553 
G1 X17.456600 Y11.029444 
G1 X17.475691 Y11.075531 
G1 X17.510966 Y11.110806 
G1 X17.557053 Y11.129897 
G1 X18.256944 Y11.129897 
G1 X18.303031 Y11.110806 
G1 X18.338306 Y11.075531 
G0 Z1.000000 
G0 X20.015691 Y11.075531 
G1 Z-0.050000 F100   
G1 X20.050966 Y11.110806 F60    
G1 X20.097053 Y11.129897 
G1 X20.796944 Y11.129897 
G1 X20.843031 Y11.110806 
G1 X20.878306 Y11.075531 
G1 X20.897397 Y11.029444 
G1 X20.897397 Y9.454553 
G1 X20.878306 Y9.408466 
G1 X20.843031 Y9.373191 
G1 X20.796944 Y9.354100 
G1 X20.097053 Y9.354100 
G1 X20.050966 Y9.373191 
G1 X20.015691 Y9.408466 
G1 X19.996600 Y9.454553 
G1 X19.996600 Y11.029444 
G1 X20.015691 Y11.075531 
G0 Z1.000000 
G0 X21.285691 Y11.075531 
G1 Z-0.050000 F100   
G1 X21.320966 Y11.110806 F60    
G1 X21.363000 Y11.128216 
G1 X21.363000 Y12.489259 
G1 X21.385394 Y12.572834 
G1 X21.428653 Y12.647763 
G1 X21.489834 Y12.708944 
G1 X21.564763 Y12.752203 
G1 X21.648338 Y12.774597 
G1 X24.830100 Y12.774597 
G1 X24.830100 Y13.131344 
G1 X24.849191 Y13.177431 
G1 X24.884466 Y13.212706 
G1 X24.930553 Y13.231797 
G1 X26.885444 Y13.231797 
G1 X26.931531 Y13.212706 
G1 X26.966806 Y13.177431 
G1 X26.985897 Y13.131344 
G1 X26.985897 Y12.799997 
G1 X29.353288 Y12.799997 
G1 X32.712706 Y16.159412 
G1 X32.674703 Y16.251153 
G1 X32.640600 Y16.422597 
G1 X32.640600 Y16.597400 
G1 X32.674703 Y16.768844 
G1 X32.741597 Y16.930341 
G1 X28.036584 Y21.663706 
G1 X27.944844 Y21.625703 
G1 X27.773400 Y21.591600 
G1 X27.598597 Y21.591600 
G1 X27.427153 Y21.625703 
G1 X27.265656 Y21.692597 
G1 X27.120316 Y21.789709 
G1 X26.996709 Y21.913316 
G1 X26.899597 Y22.058656 
G1 X26.832703 Y22.220153 
G1 X26.798600 Y22.391597 
G1 X26.798600 Y24.090400 
G1 X26.832703 Y24.261844 
G1 X26.899597 Y24.423341 
G1 X26.996709 Y24.568681 
G1 X27.120316 Y24.692287 
G1 X27.265656 Y24.789400 
G1 X27.357400 Y24.827400 
G1 X27.357400 Y25.503200 
G1 X17.727597 Y25.503200 
G1 X17.727597 Y24.827400 
G1 X17.819341 Y24.789400 
G1 X17.964681 Y24.692287 
G1 X18.088287 Y24.568681 
G1 X18.185400 Y24.423341 
G1 X18.252294 Y24.261844 
G1 X18.286397 Y24.090400 
G1 X18.286397 Y22.391597 
G1 X18.252294 Y22.220153 
G1 X18.185400 Y22.058656 
G1 X18.088287 Y21.913316 
G1 X17.964681 Y21.789709 
G1 X17.819341 Y21.692597 
G1 X17.657844 Y21.625703 
G1 X17.486400 Y21.591600 
G1 X17.311597 Y21.591600 
G1 X17.140153 Y21.625703 
G1 X16.978656 Y21.692597 
G1 X16.833316 Y21.789709 
G1 X16.709709 Y21.913316 
G1 X16.612597 Y22.058656 
G1 X16.545703 Y22.220153 
G1 X16.511600 Y22.391597 
G1 X16.511600 Y24.090400 
G1 X16.545703 Y24.261844 
G1 X16.612597 Y24.423341 
G1 X16.709709 Y24.568681 
G1 X16.833316 Y24.692287 
G1 X16.978656 Y24.789400 
G1 X17.070400 Y24.827400 
G1 X17.070400 Y25.875059 
G1 X17.092794 Y25.958634 
G1 X17.136053 Y26.033562 
G1 X17.197234 Y26.094744 
G1 X17.272163 Y26.138003 
G1 X17.355738 Y26.160397 
G1 X27.729259 Y26.160397 
G1 X27.812834 Y26.138003 
G1 X27.887763 Y26.094744 
G1 X27.948944 Y26.033562 
G1 X27.992203 Y25.958634 
G1 X28.014597 Y25.875059 
G1 X28.014597 Y24.827400 
G1 X28.106341 Y24.789400 
G1 X28.251681 Y24.692287 
G1 X28.375287 Y24.568681 
G1 X28.472400 Y24.423341 
G1 X28.539294 Y24.261844 
G1 X28.573397 Y24.090400 
G1 X28.573397 Y22.391597 
G1 X28.539294 Y22.220153 
G1 X28.501291 Y22.128412 
G1 X33.267216 Y17.362491 
G1 X33.440597 Y17.397397 
G1 X35.139400 Y17.397397 
G1 X35.310844 Y17.363294 
G1 X35.472341 Y17.296400 
G1 X35.617681 Y17.199288 
G1 X35.741287 Y17.075681 
G1 X35.838400 Y16.930341 
G1 X35.905294 Y16.768844 
G1 X35.939397 Y16.597400 
G1 X35.939397 Y16.422597 
G1 X35.905294 Y16.251153 
G1 X35.838400 Y16.089656 
G1 X35.741287 Y15.944316 
G1 X35.617681 Y15.820709 
G1 X35.472341 Y15.723597 
G1 X35.310844 Y15.656703 
G1 X35.139400 Y15.622600 
G1 X33.440597 Y15.622600 
G1 X33.269153 Y15.656703 
G1 X33.177413 Y15.694706 
G1 X29.752344 Y12.269634 
G1 X29.691163 Y12.208453 
G1 X29.616234 Y12.165194 
G1 X29.532659 Y12.142800 
G1 X26.985897 Y12.142800 
G1 X26.985897 Y11.811453 
G1 X26.966806 Y11.765366 
G1 X26.931531 Y11.730091 
G1 X26.885444 Y11.711000 
G1 X24.930553 Y11.711000 
G1 X24.884466 Y11.730091 
G1 X24.849191 Y11.765366 
G1 X24.830100 Y11.811453 
G1 X24.830100 Y12.117400 
G1 X22.020197 Y12.117400 
G1 X22.020197 Y11.129897 
G1 X22.066944 Y11.129897 
G1 X22.113031 Y11.110806 
G1 X22.148306 Y11.075531 
G1 X22.167397 Y11.029444 
G1 X22.167397 Y9.454553 
G1 X22.148306 Y9.408466 
G1 X22.113031 Y9.373191 
G1 X22.066944 Y9.354100 
G1 X21.367053 Y9.354100 
G1 X21.320966 Y9.373191 
G1 X21.285691 Y9.408466 
G1 X21.266600 Y9.454553 
G1 X21.266600 Y11.029444 
G1 X21.285691 Y11.075531 
G0 Z1.000000 
G0 Z1.000000
G0 X34.290000 Y16.510000 
G1 Z-0.254000 F100   
G1 Z1.000000
(R1.000000  P1.000000)
G0 X34.290000 Y13.970000 
G1 Z-0.254000 F100   
G0 Z1.000000 
G0 X34.290000 Y11.430000 
G1 Z-0.254000 F100   
G0 Z1.000000 
G0 X12.319000 Y23.241000 
G1 Z-0.254000 F100   
G0 Z1.000000 
G0 X14.859000 Y23.241000 
G1 Z-0.254000 F100   
G0 Z1.000000 
G0 X17.399000 Y23.241000 
G1 Z-0.254000 F100   
G0 Z1.000000 
G0 X25.146000 Y23.241000 
G1 Z-0.254000 F100   
G0 Z1.000000 
G0 X27.686000 Y23.241000 
G1 Z-0.254000 F100   
G0 Z1.000000 
G0 Z12.700000 
M4
G0 X0 Y0
