;FLAVOR:UltiGCode
;TIME:1981
;MATERIAL:4566
;MATERIAL2:0
;NOZZLE_DIAMETER:0.4
;MINX:91.454
;MINY:91.317
;MINZ:0.27
;MAXX:131.546
;MAXY:131.683
;MAXZ:29.87
;Generated with Cura_SteamEngine 4.6.1
M82 ;absolute extrusion mode

G92 E0
G92 E0
G10
;LAYER_COUNT:149
;LAYER:0
M107
G0 F4320 X96.886 Y97.303 Z0.27
;TYPE:SKIRT
G11
G1 F1800 X97.262 Y96.941 E0.04932
G1 X97.88 Y96.405 E0.12663
G1 X98.294 Y96.082 E0.17625
G1 X98.945 Y95.625 E0.25142
G1 X99.387 Y95.347 E0.30076
G1 X100.137 Y94.931 E0.38181
G1 X100.608 Y94.702 E0.4313
G1 X101.35 Y94.387 E0.50747
G1 X101.843 Y94.207 E0.55707
G1 X109.218 Y91.936 E1.2863
G1 X110.196 Y91.669 E1.38211
G1 X111.133 Y91.479 E1.47246
G1 X111.654 Y91.406 E1.52217
G1 X112.476 Y91.335 E1.60014
G1 X112.998 Y91.317 E1.6495
G1 X113.812 Y91.331 E1.72643
G1 X114.333 Y91.367 E1.77578
G1 X115.141 Y91.465 E1.8527
G1 X115.658 Y91.555 E1.90229
G1 X116.478 Y91.743 E1.98179
G1 X116.98 Y91.887 E2.03114
G1 X117.76 Y92.156 E2.10911
G1 X118.245 Y92.352 E2.15855
G1 X118.995 Y92.702 E2.23676
G1 X119.457 Y92.948 E2.28622
G1 X120.148 Y93.363 E2.36239
G1 X120.584 Y93.656 E2.41203
G1 X121.256 Y94.161 E2.49147
G1 X121.655 Y94.496 E2.5407
G1 X127.302 Y99.741 E3.26902
G1 X128.028 Y100.462 E3.36571
G1 X128.663 Y101.182 E3.45643
G1 X128.983 Y101.593 E3.50566
G1 X129.433 Y102.234 E3.57967
G1 X129.712 Y102.677 E3.62914
G1 X130.127 Y103.425 E3.70998
G1 X130.356 Y103.895 E3.75938
G1 X130.676 Y104.648 E3.8367
G1 X130.856 Y105.142 E3.88639
G1 X131.095 Y105.921 E3.96339
G1 X131.222 Y106.427 E4.01269
G1 X131.382 Y107.245 E4.09146
G1 X131.455 Y107.763 E4.14089
G1 X131.527 Y108.576 E4.21802
G1 X131.546 Y109.099 E4.26748
G1 X131.531 Y109.942 E4.34715
G1 X131.494 Y110.464 E4.3966
G1 X131.397 Y111.258 E4.4722
G1 X131.307 Y111.775 E4.52179
G1 X129.585 Y119.306 E5.25183
G1 X129.325 Y120.29 E5.34801
G1 X129.018 Y121.204 E5.43913
G1 X128.821 Y121.689 E5.4886
G1 X128.476 Y122.426 E5.5655
G1 X128.23 Y122.888 E5.61496
G1 X127.815 Y123.579 E5.69113
G1 X127.522 Y124.015 E5.74077
G1 X127.037 Y124.663 E5.81726
G1 X126.703 Y125.064 E5.86658
G1 X126.114 Y125.697 E5.94829
G1 X125.738 Y126.059 E5.99761
G1 X125.12 Y126.595 E6.07492
G1 X124.706 Y126.918 E6.12454
G1 X124.055 Y127.375 E6.1997
G1 X123.613 Y127.653 E6.24905
G1 X122.863 Y128.069 E6.33009
G1 X122.392 Y128.298 E6.37959
G1 X121.65 Y128.613 E6.45576
G1 X121.157 Y128.793 E6.50536
G1 X113.782 Y131.064 E7.23459
G1 X112.804 Y131.331 E7.33039
G1 X111.867 Y131.521 E7.42074
G1 X111.346 Y131.594 E7.47046
G1 X110.524 Y131.665 E7.54843
G1 X110.002 Y131.683 E7.59778
G1 X109.188 Y131.669 E7.67472
G1 X108.667 Y131.633 E7.72407
G1 X107.859 Y131.535 E7.80099
G1 X107.342 Y131.445 E7.85058
G1 X106.522 Y131.257 E7.93008
G1 X106.02 Y131.113 E7.97943
G1 X105.238 Y130.843 E8.05761
G1 X104.751 Y130.646 E8.10725
G1 X104.002 Y130.297 E8.18534
G1 X103.542 Y130.052 E8.23459
G1 X102.852 Y129.637 E8.31068
G1 X102.416 Y129.344 E8.36032
G1 X101.744 Y128.839 E8.43976
G1 X101.345 Y128.504 E8.48899
G1 X95.698 Y123.259 E9.21731
G1 X94.972 Y122.538 E9.314
G1 X94.339 Y121.82 E9.40446
G1 X94.018 Y121.408 E9.45381
G1 X93.562 Y120.758 E9.52884
G1 X93.283 Y120.314 E9.5784
G1 X92.872 Y119.573 E9.65847
G1 X92.643 Y119.103 E9.70788
G1 X92.322 Y118.346 E9.78558
G1 X92.143 Y117.854 E9.83506
G1 X91.905 Y117.079 E9.91167
G1 X91.778 Y116.573 E9.96097
G1 X91.617 Y115.751 E10.04013
G1 X91.544 Y115.231 E10.08975
G1 X91.473 Y114.423 E10.1664
G1 X91.454 Y113.902 E10.21567
G1 X91.469 Y113.058 E10.29544
G1 X91.506 Y112.536 E10.34489
G1 X91.603 Y111.742 E10.42048
G1 X91.693 Y111.225 E10.47007
G1 X93.415 Y103.694 E11.20012
G1 X93.675 Y102.71 E11.2963
G1 X93.982 Y101.796 E11.38741
G1 X94.179 Y101.311 E11.43688
G1 X94.524 Y100.574 E11.51378
G1 X94.77 Y100.112 E11.56324
G1 X95.185 Y99.421 E11.63941
G1 X95.478 Y98.985 E11.68906
G1 X95.963 Y98.337 E11.76554
G1 X96.297 Y97.936 E11.81486
G1 X96.886 Y97.303 E11.89657
G0 F4320 X97.129 Y97.555
G1 F1800 X97.505 Y97.193 E11.94589
G1 X98.095 Y96.681 E12.01971
G1 X98.509 Y96.358 E12.06934
G1 X99.132 Y95.921 E12.14125
G1 X99.574 Y95.643 E12.19059
G1 X100.29 Y95.245 E12.26801
G1 X100.761 Y95.016 E12.3175
G1 X101.47 Y94.715 E12.39029
G1 X101.963 Y94.535 E12.43988
G1 X109.32 Y92.27 E13.16732
G1 X110.286 Y92.007 E13.26193
G1 X111.182 Y91.826 E13.34831
G1 X111.703 Y91.753 E13.39803
G1 X112.488 Y91.684 E13.4725
G1 X113.01 Y91.666 E13.52186
G1 X113.788 Y91.68 E13.59539
G1 X114.309 Y91.716 E13.64474
G1 X115.081 Y91.809 E13.71822
G1 X115.598 Y91.899 E13.76781
G1 X116.382 Y92.08 E13.84385
G1 X116.884 Y92.224 E13.8932
G1 X117.628 Y92.48 E13.96756
G1 X118.113 Y92.676 E14.01699
G1 X118.831 Y93.011 E14.09186
G1 X119.293 Y93.257 E14.14133
G1 X119.953 Y93.653 E14.21406
G1 X120.389 Y93.946 E14.2637
G1 X121.031 Y94.429 E14.33962
G1 X121.43 Y94.764 E14.38886
G1 X127.064 Y99.997 E15.1155
G1 X127.78 Y100.709 E15.21092
G1 X128.387 Y101.397 E15.29763
G1 X128.707 Y101.808 E15.34685
G1 X129.136 Y102.421 E15.41755
G1 X129.415 Y102.864 E15.46703
G1 X129.813 Y103.578 E15.54428
G1 X130.042 Y104.048 E15.59368
G1 X130.347 Y104.768 E15.66758
G1 X130.527 Y105.262 E15.71726
G1 X130.756 Y106.006 E15.79082
G1 X130.883 Y106.512 E15.84012
G1 X131.035 Y107.294 E15.91541
G1 X131.108 Y107.812 E15.96484
G1 X131.177 Y108.589 E16.03856
G1 X131.196 Y109.112 E16.08801
G1 X131.182 Y109.917 E16.1641
G1 X131.145 Y110.439 E16.21355
G1 X131.053 Y111.198 E16.2858
G1 X130.963 Y111.715 E16.33539
G1 X129.244 Y119.227 E17.06362
G1 X128.988 Y120.199 E17.15861
G1 X128.694 Y121.072 E17.24566
G1 X128.497 Y121.557 E17.29513
G1 X128.167 Y122.262 E17.36869
G1 X127.921 Y122.724 E17.41815
G1 X127.525 Y123.384 E17.49089
G1 X127.232 Y123.82 E17.54053
G1 X126.768 Y124.439 E17.61364
G1 X126.434 Y124.84 E17.66295
G1 X125.871 Y125.445 E17.74105
G1 X125.495 Y125.807 E17.79037
G1 X124.905 Y126.319 E17.8642
G1 X124.491 Y126.642 E17.91382
G1 X123.868 Y127.079 E17.98573
G1 X123.426 Y127.357 E18.03507
G1 X122.71 Y127.755 E18.11249
G1 X122.239 Y127.984 E18.16198
G1 X121.53 Y128.285 E18.23477
G1 X121.037 Y128.465 E18.28436
G1 X113.68 Y130.73 E19.0118
G1 X112.714 Y130.993 E19.10641
G1 X111.818 Y131.174 E19.1928
G1 X111.297 Y131.247 E19.24251
G1 X110.512 Y131.316 E19.31698
G1 X109.99 Y131.334 E19.36634
G1 X109.212 Y131.32 E19.43987
G1 X108.691 Y131.284 E19.48922
G1 X107.919 Y131.191 E19.5627
G1 X107.402 Y131.101 E19.61229
G1 X106.618 Y130.92 E19.68833
G1 X106.116 Y130.776 E19.73768
G1 X105.369 Y130.519 E19.81234
G1 X104.882 Y130.322 E19.86198
G1 X104.167 Y129.988 E19.93656
G1 X103.707 Y129.743 E19.98581
G1 X103.047 Y129.347 E20.05854
G1 X102.611 Y129.054 E20.10818
G1 X101.969 Y128.571 E20.18411
G1 X101.57 Y128.236 E20.23334
G1 X95.936 Y123.003 E20.95998
G1 X95.22 Y122.291 E21.05541
G1 X94.615 Y121.605 E21.14184
G1 X94.294 Y121.193 E21.1912
G1 X93.859 Y120.572 E21.26285
G1 X93.58 Y120.128 E21.3124
G1 X93.186 Y119.42 E21.38897
G1 X92.957 Y118.95 E21.43838
G1 X92.65 Y118.227 E21.5126
G1 X92.471 Y117.735 E21.56208
G1 X92.244 Y116.994 E21.63532
G1 X92.117 Y116.488 E21.68462
G1 X91.964 Y115.702 E21.76029
G1 X91.891 Y115.182 E21.80991
G1 X91.823 Y114.41 E21.88315
G1 X91.804 Y113.889 E21.93241
G1 X91.818 Y113.083 E22.00859
G1 X91.855 Y112.561 E22.05804
G1 X91.947 Y111.802 E22.13029
G1 X92.037 Y111.285 E22.17989
G1 X93.756 Y103.773 E22.90812
G1 X94.012 Y102.801 E23.00311
G1 X94.306 Y101.928 E23.09016
G1 X94.503 Y101.443 E23.13963
G1 X94.833 Y100.738 E23.21319
G1 X95.079 Y100.276 E23.26265
G1 X95.475 Y99.616 E23.33538
G1 X95.768 Y99.18 E23.38502
G1 X96.232 Y98.561 E23.45813
G1 X96.566 Y98.16 E23.50745
G1 X97.129 Y97.555 E23.58555
G0 F4320 X97.372 Y97.807
G1 F1800 X97.748 Y97.445 E23.63487
G1 X98.31 Y96.957 E23.70521
G1 X98.724 Y96.634 E23.75483
G1 X99.318 Y96.217 E23.82341
G1 X99.76 Y95.939 E23.87276
G1 X100.443 Y95.56 E23.94657
G1 X100.914 Y95.331 E23.99606
G1 X101.59 Y95.044 E24.06546
G1 X102.083 Y94.864 E24.11506
G1 X109.423 Y92.605 E24.8408
G1 X110.377 Y92.345 E24.93424
G1 X111.23 Y92.172 E25.01649
G1 X111.751 Y92.099 E25.0662
G1 X112.5 Y92.034 E25.13725
G1 X113.022 Y92.016 E25.18661
G1 X113.764 Y92.029 E25.25674
G1 X114.285 Y92.065 E25.30609
G1 X115.021 Y92.154 E25.37615
G1 X115.538 Y92.244 E25.42574
G1 X116.285 Y92.416 E25.49818
G1 X116.787 Y92.56 E25.54753
G1 X117.497 Y92.805 E25.61851
G1 X117.982 Y93.001 E25.66794
G1 X118.666 Y93.32 E25.73926
G1 X119.128 Y93.566 E25.78872
G1 X119.758 Y93.944 E25.85815
G1 X120.194 Y94.237 E25.9078
G1 X120.806 Y94.697 E25.98014
G1 X121.205 Y95.032 E26.02938
G1 X126.825 Y100.253 E26.75428
G1 X127.532 Y100.956 E26.8485
G1 X128.11 Y101.612 E26.93112
G1 X128.43 Y102.023 E26.98035
G1 X128.84 Y102.607 E27.04778
G1 X129.119 Y103.05 E27.09725
G1 X129.498 Y103.731 E27.1709
G1 X129.727 Y104.201 E27.22031
G1 X130.018 Y104.888 E27.29081
G1 X130.198 Y105.382 E27.3405
G1 X130.416 Y106.091 E27.41059
G1 X130.543 Y106.597 E27.45989
G1 X130.689 Y107.343 E27.53173
G1 X130.762 Y107.861 E27.58116
G1 X130.827 Y108.602 E27.65146
G1 X130.846 Y109.125 E27.70091
G1 X130.833 Y109.892 E27.7734
G1 X130.796 Y110.414 E27.82286
G1 X130.708 Y111.138 E27.89178
G1 X130.618 Y111.655 E27.94137
G1 X128.903 Y119.149 E28.66786
G1 X128.65 Y120.108 E28.76159
G1 X128.37 Y120.94 E28.84454
G1 X128.173 Y121.425 E28.89401
G1 X127.858 Y122.097 E28.96415
G1 X127.612 Y122.559 E29.01361
G1 X127.234 Y123.189 E29.08304
G1 X126.941 Y123.625 E29.13268
G1 X126.499 Y124.215 E29.20235
G1 X126.165 Y124.616 E29.25166
G1 X125.628 Y125.193 E29.32615
G1 X125.252 Y125.555 E29.37547
G1 X124.69 Y126.043 E29.44581
G1 X124.276 Y126.366 E29.49543
G1 X123.682 Y126.783 E29.56402
G1 X123.24 Y127.061 E29.61336
G1 X122.557 Y127.44 E29.68717
G1 X122.086 Y127.669 E29.73667
G1 X121.41 Y127.956 E29.80607
G1 X120.917 Y128.136 E29.85566
G1 X113.577 Y130.395 E30.5814
G1 X112.623 Y130.655 E30.67484
G1 X111.77 Y130.828 E30.75709
G1 X111.249 Y130.901 E30.80681
G1 X110.5 Y130.966 E30.87785
G1 X109.978 Y130.984 E30.92721
G1 X109.236 Y130.971 E30.99734
G1 X108.715 Y130.935 E31.04669
G1 X107.979 Y130.846 E31.11675
G1 X107.462 Y130.756 E31.16634
G1 X106.715 Y130.584 E31.23878
G1 X106.213 Y130.44 E31.28813
G1 X105.5 Y130.194 E31.35941
G1 X105.013 Y129.997 E31.40905
G1 X104.331 Y129.679 E31.48017
G1 X103.871 Y129.434 E31.52942
G1 X103.242 Y129.056 E31.59876
G1 X102.806 Y128.763 E31.64841
G1 X102.194 Y128.303 E31.72076
G1 X101.795 Y127.968 E31.76999
G1 X96.175 Y122.747 E32.49489
G1 X95.468 Y122.044 E32.58911
G1 X94.891 Y121.39 E32.67153
G1 X94.57 Y120.978 E32.72089
G1 X94.155 Y120.385 E32.78928
G1 X93.876 Y119.941 E32.83884
G1 X93.501 Y119.267 E32.91173
G1 X93.272 Y118.797 E32.96113
G1 X92.979 Y118.107 E33.03197
G1 X92.8 Y117.615 E33.08145
G1 X92.584 Y116.909 E33.15122
G1 X92.457 Y116.403 E33.20052
G1 X92.311 Y115.653 E33.27272
G1 X92.238 Y115.133 E33.32234
G1 X92.173 Y114.397 E33.39217
G1 X92.154 Y113.876 E33.44143
G1 X92.167 Y113.108 E33.51402
G1 X92.204 Y112.586 E33.56347
G1 X92.292 Y111.862 E33.6324
G1 X92.382 Y111.345 E33.68199
G1 X94.097 Y103.851 E34.40848
G1 X94.35 Y102.892 E34.5022
G1 X94.63 Y102.06 E34.58516
G1 X94.827 Y101.575 E34.63463
G1 X95.142 Y100.903 E34.70476
G1 X95.388 Y100.441 E34.75423
G1 X95.766 Y99.811 E34.82366
G1 X96.059 Y99.375 E34.8733
G1 X96.501 Y98.785 E34.94296
G1 X96.835 Y98.384 E34.99228
G1 X97.372 Y97.807 E35.06677
G0 F4320 X97.614 Y98.059
G1 F1800 X97.99 Y97.697 E35.11609
G1 X98.526 Y97.233 E35.18308
G1 X98.94 Y96.91 E35.23271
G1 X99.504 Y96.514 E35.29783
G1 X99.946 Y96.236 E35.34717
G1 X100.596 Y95.875 E35.41744
G1 X101.067 Y95.646 E35.46693
G1 X101.71 Y95.373 E35.53294
G1 X102.203 Y95.193 E35.58254
G1 X109.526 Y92.939 E36.3066
G1 X110.467 Y92.684 E36.39873
G1 X111.279 Y92.519 E36.47703
G1 X111.8 Y92.446 E36.52675
G1 X112.512 Y92.384 E36.59429
G1 X113.034 Y92.366 E36.64365
G1 X113.739 Y92.378 E36.71028
G1 X114.26 Y92.414 E36.75963
G1 X114.961 Y92.499 E36.82636
G1 X115.478 Y92.589 E36.87595
G1 X116.189 Y92.753 E36.94491
G1 X116.691 Y92.897 E36.99426
G1 X117.366 Y93.129 E37.06171
G1 X117.851 Y93.325 E37.11114
G1 X118.502 Y93.629 E37.17904
G1 X118.964 Y93.875 E37.2285
G1 X119.563 Y94.234 E37.29449
G1 X119.999 Y94.527 E37.34414
G1 X120.581 Y94.965 E37.41297
G1 X120.98 Y95.3 E37.4622
G1 X126.586 Y100.51 E38.18543
G1 X127.284 Y101.203 E38.27838
G1 X127.834 Y101.827 E38.35698
G1 X128.154 Y102.238 E38.40621
G1 X128.544 Y102.794 E38.47039
G1 X128.823 Y103.237 E38.51986
G1 X129.183 Y103.885 E38.58991
G1 X129.412 Y104.355 E38.63932
G1 X129.69 Y105.007 E38.7063
G1 X129.87 Y105.501 E38.75598
G1 X130.077 Y106.177 E38.82279
G1 X130.204 Y106.683 E38.87209
G1 X130.342 Y107.392 E38.94035
G1 X130.415 Y107.91 E38.98979
G1 X130.478 Y108.614 E39.05658
G1 X130.497 Y109.137 E39.10604
G1 X130.484 Y109.868 E39.17513
G1 X130.447 Y110.39 E39.22458
G1 X130.363 Y111.078 E39.29008
G1 X130.273 Y111.595 E39.33967
G1 X128.562 Y119.07 E40.06433
G1 X128.312 Y120.017 E40.15688
G1 X128.045 Y120.808 E40.23578
G1 X127.848 Y121.293 E40.28525
G1 X127.549 Y121.933 E40.352
G1 X127.303 Y122.395 E40.40146
G1 X126.944 Y122.994 E40.46746
G1 X126.651 Y123.43 E40.5171
G1 X126.23 Y123.991 E40.58338
G1 X125.896 Y124.392 E40.6327
G1 X125.386 Y124.941 E40.70351
G1 X125.01 Y125.303 E40.75283
G1 X124.474 Y125.767 E40.81983
G1 X124.06 Y126.09 E40.86945
G1 X123.496 Y126.486 E40.93457
G1 X123.054 Y126.764 E40.98392
G1 X122.404 Y127.125 E41.05418
G1 X121.933 Y127.354 E41.10367
G1 X121.29 Y127.627 E41.16968
G1 X120.797 Y127.807 E41.21928
G1 X113.474 Y130.061 E41.94334
G1 X112.533 Y130.316 E42.03547
G1 X111.721 Y130.481 E42.11378
G1 X111.2 Y130.554 E42.16349
G1 X110.488 Y130.616 E42.23103
G1 X109.966 Y130.634 E42.28039
G1 X109.261 Y130.622 E42.34702
G1 X108.74 Y130.586 E42.39637
G1 X108.039 Y130.501 E42.4631
G1 X107.522 Y130.411 E42.51269
G1 X106.811 Y130.247 E42.58165
G1 X106.309 Y130.103 E42.631
G1 X105.632 Y129.87 E42.69866
G1 X105.145 Y129.673 E42.7483
G1 X104.496 Y129.37 E42.81599
G1 X104.036 Y129.125 E42.86524
G1 X103.437 Y128.766 E42.93123
G1 X103.001 Y128.473 E42.98087
G1 X102.419 Y128.035 E43.04971
G1 X102.02 Y127.7 E43.09894
G1 X96.414 Y122.49 E43.82217
G1 X95.716 Y121.797 E43.91512
G1 X95.167 Y121.175 E43.99352
G1 X94.846 Y120.763 E44.04287
G1 X94.451 Y120.199 E44.10794
G1 X94.172 Y119.755 E44.1575
G1 X93.816 Y119.113 E44.22687
G1 X93.587 Y118.643 E44.27628
G1 X93.308 Y117.987 E44.34364
G1 X93.129 Y117.495 E44.39312
G1 X92.923 Y116.823 E44.45954
G1 X92.796 Y116.317 E44.50884
G1 X92.657 Y115.605 E44.57739
G1 X92.584 Y115.085 E44.62701
G1 X92.523 Y114.385 E44.69342
G1 X92.504 Y113.864 E44.74268
G1 X92.516 Y113.132 E44.81187
G1 X92.553 Y112.61 E44.86132
G1 X92.637 Y111.922 E44.92682
G1 X92.727 Y111.405 E44.97641
G1 X94.438 Y103.93 E45.70106
G1 X94.688 Y102.983 E45.79362
G1 X94.955 Y102.192 E45.87252
G1 X95.152 Y101.707 E45.92198
G1 X95.451 Y101.067 E45.98874
G1 X95.697 Y100.605 E46.0382
G1 X96.056 Y100.006 E46.10419
G1 X96.349 Y99.57 E46.15384
G1 X96.77 Y99.009 E46.22012
G1 X97.104 Y98.608 E46.26944
G1 X97.614 Y98.059 E46.34025
G0 F4320 X97.857 Y98.311
G1 F1800 X98.233 Y97.949 E46.38957
G1 X98.741 Y97.509 E46.45308
G1 X99.155 Y97.186 E46.5027
G1 X99.691 Y96.81 E46.56457
G1 X100.133 Y96.532 E46.61392
G1 X100.749 Y96.19 E46.6805
G1 X101.22 Y95.961 E46.72999
G1 X101.83 Y95.702 E46.79262
G1 X102.323 Y95.522 E46.84221
G1 X109.628 Y93.274 E47.56448
G1 X110.557 Y93.022 E47.65545
G1 X111.328 Y92.866 E47.72978
G1 X111.849 Y92.793 E47.7795
G1 X112.524 Y92.734 E47.84353
G1 X113.046 Y92.716 E47.89289
G1 X113.715 Y92.727 E47.95612
G1 X114.236 Y92.763 E48.00547
G1 X114.9 Y92.844 E48.06868
G1 X115.417 Y92.934 E48.11827
G1 X116.092 Y93.089 E48.18372
G1 X116.594 Y93.233 E48.23307
G1 X117.235 Y93.454 E48.29715
G1 X117.72 Y93.65 E48.34658
G1 X118.337 Y93.938 E48.41093
G1 X118.799 Y94.184 E48.46039
G1 X119.368 Y94.525 E48.52308
G1 X119.804 Y94.818 E48.57272
G1 X120.356 Y95.233 E48.63798
G1 X120.755 Y95.568 E48.68721
G1 X126.348 Y100.766 E49.40877
G1 X127.036 Y101.45 E49.50045
G1 X127.558 Y102.042 E49.57503
G1 X127.878 Y102.453 E49.62426
G1 X128.248 Y102.98 E49.68511
G1 X128.527 Y103.423 E49.73458
G1 X128.869 Y104.038 E49.80108
G1 X129.098 Y104.508 E49.85049
G1 X129.361 Y105.127 E49.91404
G1 X129.541 Y105.621 E49.96373
G1 X129.737 Y106.262 E50.02707
