;FLAVOR:UltiGCode
;TIME:2164
;MATERIAL:4799
;MATERIAL2:0
;NOZZLE_DIAMETER:0.4
;MINX:95.475
;MINY:82.475
;MINZ:0.27
;MAXX:127.525
;MAXY:140.525
;MAXZ:17.07
;Generated with Cura_SteamEngine 4.6.1
M82 ;absolute extrusion mode

G92 E0
G92 E0
G10
;LAYER_COUNT:85
;LAYER:0
M107
G0 F4320 X124.538 Y82.882 Z0.27
;TYPE:SKIRT
G11
G1 F1800 X125.025 Y83.008 E0.04754
G1 X125.487 Y83.21 E0.09519
G1 X125.911 Y83.481 E0.14274
G1 X126.287 Y83.817 E0.19039
G1 X126.605 Y84.207 E0.23795
G1 X126.857 Y84.643 E0.28553
G1 X127.037 Y85.113 E0.3331
G1 X127.14 Y85.606 E0.38069
G1 X127.174 Y86.241 E0.44078
G1 X127.175 Y136.303 E5.17164
G1 X127.166 Y137.03 E5.24035
G1 X127.12 Y137.532 E5.28799
G1 X126.995 Y138.02 E5.33559
G1 X126.794 Y138.482 E5.3832
G1 X126.523 Y138.906 E5.43076
G1 X126.189 Y139.282 E5.47828
G1 X125.799 Y139.601 E5.5259
G1 X125.363 Y139.854 E5.57353
G1 X124.893 Y140.035 E5.62113
G1 X124.401 Y140.139 E5.66865
G1 X123.759 Y140.174 E5.72941
G1 X99.666 Y140.175 E8.0062
G1 X98.968 Y140.166 E8.07216
G1 X98.467 Y140.119 E8.11972
G1 X97.979 Y139.994 E8.16732
G1 X97.517 Y139.794 E8.21489
G1 X97.093 Y139.522 E8.2625
G1 X96.716 Y139.188 E8.3101
G1 X96.398 Y138.797 E8.35772
G1 X96.145 Y138.362 E8.40528
G1 X95.964 Y137.892 E8.45287
G1 X95.86 Y137.399 E8.50049
G1 X95.826 Y136.744 E8.56247
G1 X95.825 Y86.631 E13.29814
G1 X95.834 Y85.966 E13.36099
G1 X95.881 Y85.465 E13.40855
G1 X96.006 Y84.977 E13.45615
G1 X96.207 Y84.515 E13.50376
G1 X96.479 Y84.091 E13.55137
G1 X96.814 Y83.715 E13.59896
G1 X97.204 Y83.397 E13.64651
G1 X97.64 Y83.144 E13.69415
G1 X98.11 Y82.964 E13.74171
G1 X98.603 Y82.86 E13.78932
G1 X99.241 Y82.826 E13.8497
G1 X123.338 Y82.825 E16.12686
G1 X124.036 Y82.835 E16.19283
G1 X124.538 Y82.882 E16.24048
G0 F4320 X124.57 Y82.533
G1 F1800 X125.085 Y82.659 E16.29058
G1 X125.576 Y82.861 E16.34075
G1 X126.031 Y83.135 E16.39094
G1 X126.439 Y83.474 E16.44107
G1 X126.792 Y83.87 E16.4912
G1 X127.082 Y84.315 E16.5414
G1 X127.301 Y84.798 E16.59152
G1 X127.446 Y85.309 E16.64171
G1 X127.515 Y85.911 E16.69897
G1 X127.525 Y136.308 E21.46149
G1 X127.516 Y137.035 E21.5302
G1 X127.469 Y137.563 E21.58029
G1 X127.344 Y138.079 E21.63046
G1 X127.143 Y138.57 E21.6806
G1 X126.87 Y139.025 E21.73074
G1 X126.532 Y139.434 E21.78088
G1 X126.136 Y139.788 E21.83108
G1 X125.692 Y140.078 E21.88119
G1 X125.209 Y140.299 E21.93139
G1 X124.699 Y140.444 E21.98149
G1 X124.09 Y140.515 E22.03943
G1 X99.662 Y140.525 E24.34788
G1 X98.964 Y140.516 E24.41384
G1 X98.435 Y140.469 E24.46403
G1 X97.919 Y140.343 E24.51423
G1 X97.428 Y140.142 E24.56436
G1 X96.973 Y139.869 E24.61451
G1 X96.564 Y139.531 E24.66465
G1 X96.211 Y139.135 E24.71478
G1 X95.921 Y138.691 E24.76489
G1 X95.701 Y138.208 E24.81505
G1 X95.555 Y137.697 E24.86527
G1 X95.485 Y137.086 E24.92339
G1 X95.475 Y86.626 E29.69186
G1 X95.484 Y85.961 E29.75471
G1 X95.531 Y85.433 E29.8048
G1 X95.657 Y84.917 E29.85499
G1 X95.859 Y84.426 E29.90517
G1 X96.132 Y83.972 E29.95523
G1 X96.471 Y83.563 E30.00543
G1 X96.867 Y83.21 E30.05556
G1 X97.311 Y82.92 E30.10568
G1 X97.794 Y82.7 E30.15583
G1 X98.305 Y82.555 E30.20603
G1 X98.91 Y82.485 E30.26358
G1 X123.343 Y82.475 E32.5725
G1 X124.041 Y82.485 E32.63847
G1 X124.57 Y82.533 E32.68867
G10
;MESH:hopperV2.stl
G0 F4320 X123.461 Y85.304
G0 X123.461 Y86.539
G0 X99.875 Y136.125
;TYPE:WALL-INNER
G11
G1 F1800 X99.875 Y86.875 E37.34279
G1 X123.125 Y86.875 E39.53992
G1 X123.125 Y136.125 E44.19404
G1 X99.875 Y136.125 E46.39117
G0 F4320 X99.525 Y136.475
G1 F1800 X99.525 Y86.525 E51.11144
G1 X123.475 Y86.525 E53.37472
G1 X123.475 Y136.475 E58.09499
G1 X99.525 Y136.475 E60.35827
G0 F4320 X99.2 Y136.8
;TYPE:WALL-OUTER
G1 F1800 X99.2 Y86.2 E65.13997
G1 X123.8 Y86.2 E67.46467
G1 X123.8 Y136.8 E72.24637
G1 X99.2 Y136.8 E74.57107
G0 F4320 X99.2 Y136.6
G0 X99.595 Y136.405
G0 X100.215 Y135.785
;TYPE:SKIN
G1 F1800 X100.215 Y87.215 E79.16093
G1 X122.785 Y87.215 E81.2938
G1 X122.785 Y135.785 E85.88366
G1 X100.215 Y135.785 E88.01653
G0 F4320 X100.484 Y135.627
G1 F1800 X100.371 Y135.514 E88.03163
G0 F4320 X100.371 Y135.019
G1 F1800 X100.979 Y135.627 E88.11288
G0 F4320 X101.474 Y135.627
G1 F1800 X100.371 Y134.524 E88.26029
G0 F4320 X100.371 Y134.029
G1 F1800 X101.969 Y135.627 E88.47385
G0 F4320 X102.464 Y135.627
G1 F1800 X100.371 Y133.534 E88.75357
G0 F4320 X100.371 Y133.04
G1 F1800 X102.958 Y135.627 E89.0993
G0 F4320 X103.453 Y135.627
G1 F1800 X100.371 Y132.545 E89.51119
G0 F4320 X100.371 Y132.05
G1 F1800 X103.948 Y135.627 E89.98923
G0 F4320 X104.443 Y135.627
G1 F1800 X100.371 Y131.555 E90.53343
G0 F4320 X100.371 Y131.06
G1 F1800 X104.938 Y135.627 E91.14378
G0 F4320 X105.433 Y135.627
G1 F1800 X100.371 Y130.565 E91.82028
G0 F4320 X100.371 Y130.07
G1 F1800 X105.928 Y135.627 E92.56293
G0 F4320 X106.423 Y135.627
G1 F1800 X100.371 Y129.575 E93.37174
G0 F4320 X100.371 Y129.08
G1 F1800 X106.918 Y135.627 E94.2467
G0 F4320 X107.413 Y135.627
G1 F1800 X100.371 Y128.585 E95.18782
G0 F4320 X100.371 Y128.09
G1 F1800 X107.908 Y135.627 E96.19509
G0 F4320 X108.403 Y135.627
G1 F1800 X100.371 Y127.595 E97.26851
G0 F4320 X100.371 Y127.1
G1 F1800 X108.898 Y135.627 E98.40808
G0 F4320 X109.393 Y135.627
G1 F1800 X100.371 Y126.605 E99.61381
G0 F4320 X100.371 Y126.11
G1 F1800 X109.888 Y135.627 E100.8857
G0 F4320 X110.383 Y135.627
G1 F1800 X100.371 Y125.615 E102.22373
G0 F4320 X100.371 Y125.12
G1 F1800 X110.878 Y135.627 E103.62792
G0 F4320 X111.373 Y135.627
G1 F1800 X100.371 Y124.625 E105.09826
G0 F4320 X100.371 Y124.13
G1 F1800 X111.868 Y135.627 E106.63476
G0 F4320 X112.363 Y135.627
G1 F1800 X100.371 Y123.635 E108.23741
G0 F4320 X100.371 Y123.14
G1 F1800 X112.858 Y135.627 E109.90621
G0 F4320 X113.353 Y135.627
G1 F1800 X100.371 Y122.645 E111.64116
G0 F4320 X100.371 Y122.15
G1 F1800 X113.848 Y135.627 E113.44227
G0 F4320 X114.343 Y135.627
G1 F1800 X100.371 Y121.655 E115.30954
G0 F4320 X100.371 Y121.16
G1 F1800 X114.838 Y135.627 E117.24295
G0 F4320 X115.333 Y135.627
G1 F1800 X100.371 Y120.665 E119.24252
G0 F4320 X100.371 Y120.17
G1 F1800 X115.828 Y135.627 E121.30824
G0 F4320 X116.323 Y135.627
G1 F1800 X100.371 Y119.675 E123.44012
G0 F4320 X100.371 Y119.18
G1 F1800 X116.818 Y135.627 E125.63815
G0 F4320 X117.313 Y135.627
G1 F1800 X100.371 Y118.685 E127.90233
G0 F4320 X100.371 Y118.19
G1 F1800 X117.808 Y135.627 E130.23267
G0 F4320 X118.303 Y135.627
G1 F1800 X100.371 Y117.695 E132.62916
G0 F4320 X100.371 Y117.2
G1 F1800 X118.798 Y135.627 E135.0918
G0 F4320 X119.293 Y135.627
G1 F1800 X100.371 Y116.705 E137.6206
G0 F4320 X100.371 Y116.21
G1 F1800 X119.788 Y135.627 E140.21555
G0 F4320 X120.283 Y135.627
G1 F1800 X100.371 Y115.715 E142.87665
G0 F4320 X100.371 Y115.22
G1 F1800 X120.778 Y135.627 E145.60391
G0 F4320 X121.273 Y135.627
G1 F1800 X100.371 Y114.725 E148.39732
G0 F4320 X100.371 Y114.23
G1 F1800 X121.768 Y135.627 E151.25688
G0 F4320 X122.263 Y135.627
G1 F1800 X100.371 Y113.736 E154.18253
G0 F4320 X100.371 Y113.241
G1 F1800 X122.627 Y135.497 E157.15689
G0 F4320 X122.627 Y135.002
G1 F1800 X100.371 Y112.746 E160.13125
G0 F4320 X100.371 Y112.251
G1 F1800 X122.627 Y134.507 E163.10562
G0 F4320 X122.627 Y134.012
G1 F1800 X100.371 Y111.756 E166.07998
G0 F4320 X100.371 Y111.261
G1 F1800 X122.627 Y133.517 E169.05434
G0 F4320 X122.627 Y133.022
G1 F1800 X100.371 Y110.766 E172.02871
G0 F4320 X100.371 Y110.271
G1 F1800 X122.627 Y132.527 E175.00307
G0 F4320 X122.627 Y132.032
G1 F1800 X100.371 Y109.776 E177.97743
G0 F4320 X100.371 Y109.281
G1 F1800 X122.627 Y131.537 E180.95179
G0 F4320 X122.627 Y131.042
G1 F1800 X100.371 Y108.786 E183.92616
G0 F4320 X100.371 Y108.291
G1 F1800 X122.627 Y130.547 E186.90052
G0 F4320 X122.627 Y130.052
G1 F1800 X100.371 Y107.796 E189.87488
G0 F4320 X100.371 Y107.301
G1 F1800 X122.627 Y129.557 E192.84924
G0 F4320 X122.627 Y129.062
G1 F1800 X100.371 Y106.806 E195.82361
G0 F4320 X100.371 Y106.311
G1 F1800 X122.627 Y128.567 E198.79797
G0 F4320 X122.627 Y128.072
G1 F1800 X100.371 Y105.816 E201.77233
G0 F4320 X100.371 Y105.321
G1 F1800 X122.627 Y127.577 E204.74669
G0 F4320 X122.627 Y127.082
G1 F1800 X100.371 Y104.826 E207.72106
G0 F4320 X100.371 Y104.331
G1 F1800 X122.627 Y126.587 E210.69542
G0 F4320 X122.627 Y126.092
G1 F1800 X100.371 Y103.836 E213.66978
G0 F4320 X100.371 Y103.341
G1 F1800 X122.627 Y125.597 E216.64414
G0 F4320 X122.627 Y125.102
G1 F1800 X100.371 Y102.846 E219.61851
G0 F4320 X100.371 Y102.351
G1 F1800 X122.627 Y124.607 E222.59287
G0 F4320 X122.627 Y124.112
G1 F1800 X100.371 Y101.856 E225.56723
G0 F4320 X100.371 Y101.361
G1 F1800 X122.627 Y123.617 E228.5416
G0 F4320 X122.627 Y123.122
G1 F1800 X100.371 Y100.866 E231.51596
G0 F4320 X100.371 Y100.371
G1 F1800 X122.627 Y122.627 E234.49032
G0 F4320 X122.627 Y122.132
G1 F1800 X100.371 Y99.876 E237.46468
G0 F4320 X100.371 Y99.381
G1 F1800 X122.627 Y121.637 E240.43905
G0 F4320 X122.627 Y121.142
G1 F1800 X100.371 Y98.886 E243.41341
G0 F4320 X100.371 Y98.391
G1 F1800 X122.627 Y120.647 E246.38777
G0 F4320 X122.627 Y120.152
G1 F1800 X100.371 Y97.896 E249.36213
G0 F4320 X100.371 Y97.401
G1 F1800 X122.627 Y119.658 E252.33656
G0 F4320 X122.627 Y119.163
G1 F1800 X100.371 Y96.906 E255.31099
G0 F4320 X100.371 Y96.411
G1 F1800 X122.627 Y118.668 E258.28542
G0 F4320 X122.627 Y118.173
G1 F1800 X100.371 Y95.916 E261.25985
G0 F4320 X100.371 Y95.421
G1 F1800 X122.627 Y117.678 E264.23428
G0 F4320 X122.627 Y117.183
G1 F1800 X100.371 Y94.926 E267.20871
G0 F4320 X100.371 Y94.431
G1 F1800 X122.627 Y116.688 E270.18314
G0 F4320 X122.627 Y116.193
G1 F1800 X100.371 Y93.937 E273.1575
G0 F4320 X100.371 Y93.442
G1 F1800 X122.627 Y115.698 E276.13187
G0 F4320 X122.627 Y115.203
G1 F1800 X100.371 Y92.947 E279.10623
G0 F4320 X100.371 Y92.452
G1 F1800 X122.627 Y114.708 E282.08059
G0 F4320 X122.627 Y114.213
G1 F1800 X100.371 Y91.957 E285.05495
G0 F4320 X100.371 Y91.462
G1 F1800 X122.627 Y113.718 E288.02932
G0 F4320 X122.627 Y113.223
G1 F1800 X100.371 Y90.967 E291.00368
G0 F4320 X100.371 Y90.472
G1 F1800 X122.627 Y112.728 E293.97804
G0 F4320 X122.627 Y112.233
G1 F1800 X100.371 Y89.977 E296.9524
G0 F4320 X100.371 Y89.482
G1 F1800 X122.627 Y111.738 E299.92677
G0 F4320 X122.627 Y111.243
G1 F1800 X100.371 Y88.987 E302.90113
G0 F4320 X100.371 Y88.492
G1 F1800 X122.627 Y110.748 E305.87549
G0 F4320 X122.627 Y110.253
G1 F1800 X100.371 Y87.997 E308.84985
G0 F4320 X100.371 Y87.502
G1 F1800 X122.627 Y109.758 E311.82422
G0 F4320 X122.627 Y109.263
G1 F1800 X100.736 Y87.372 E314.7498
G0 F4320 X101.231 Y87.372
G1 F1800 X122.627 Y108.768 E317.60923
G0 F4320 X122.627 Y108.273
G1 F1800 X101.726 Y87.372 E320.40251
G0 F4320 X102.221 Y87.372
G1 F1800 X122.627 Y107.778 E323.12963
G0 F4320 X122.627 Y107.283
G1 F1800 X102.716 Y87.372 E325.7906
G0 F4320 X103.211 Y87.372
G1 F1800 X122.627 Y106.788 E328.38541
G0 F4320 X122.627 Y106.293
G1 F1800 X103.706 Y87.372 E330.91408
G0 F4320 X104.201 Y87.372
G1 F1800 X122.627 Y105.798 E333.37659
G0 F4320 X122.627 Y105.303
G1 F1800 X104.696 Y87.372 E335.77294
G0 F4320 X105.191 Y87.372
G1 F1800 X122.627 Y104.808 E338.10314
G0 F4320 X122.627 Y104.313
G1 F1800 X105.686 Y87.372 E340.36719
G0 F4320 X106.181 Y87.372
G1 F1800 X122.627 Y103.818 E342.56509
G0 F4320 X122.627 Y103.323
G1 F1800 X106.676 Y87.372 E344.69683
G0 F4320 X107.171 Y87.372
G1 F1800 X122.627 Y102.828 E346.76242
G0 F4320 X122.627 Y102.333
G1 F1800 X107.666 Y87.372 E348.76186
G0 F4320 X108.161 Y87.372
G1 F1800 X122.627 Y101.838 E350.69514
G0 F4320 X122.627 Y101.343
G1 F1800 X108.656 Y87.372 E352.56227
G0 F4320 X109.151 Y87.372
G1 F1800 X122.627 Y100.848 E354.36324
G0 F4320 X122.627 Y100.354
G1 F1800 X109.646 Y87.372 E356.09813
G0 F4320 X110.141 Y87.372
G1 F1800 X122.627 Y99.859 E357.76687
G0 F4320 X122.627 Y99.364
G1 F1800 X110.636 Y87.372 E359.36945
G0 F4320 X111.131 Y87.372
G1 F1800 X122.627 Y98.869 E360.90588
G0 F4320 X122.627 Y98.374
G1 F1800 X111.625 Y87.372 E362.37622
G0 F4320 X112.12 Y87.372
G1 F1800 X122.627 Y97.879 E363.78041
G0 F4320 X122.627 Y97.384
G1 F1800 X112.615 Y87.372 E365.11845
G0 F4320 X113.11 Y87.372
G1 F1800 X122.627 Y96.889 E366.39033
G0 F4320 X122.627 Y96.394
G1 F1800 X113.605 Y87.372 E367.59606
G0 F4320 X114.1 Y87.372
G1 F1800 X122.627 Y95.899 E368.73563
G0 F4320 X122.627 Y95.404
G1 F1800 X114.595 Y87.372 E369.80905
G0 F4320 X115.09 Y87.372
G1 F1800 X122.627 Y94.909 E370.81632
G0 F4320 X122.627 Y94.414
G1 F1800 X115.585 Y87.372 E371.75744
G0 F4320 X116.08 Y87.372
G1 F1800 X122.627 Y93.919 E372.6324
G0 F4320 X122.627 Y93.424
G1 F1800 X116.575 Y87.372 E373.44121
G0 F4320 X117.07 Y87.372
G1 F1800 X122.627 Y92.929 E374.18386
G0 F4320 X122.627 Y92.434
G1 F1800 X117.565 Y87.372 E374.86037
G0 F4320 X118.06 Y87.372
G1 F1800 X122.627 Y91.939 E375.47071
G0 F4320 X122.627 Y91.444
G1 F1800 X118.555 Y87.372 E376.01491
G0 F4320 X119.05 Y87.372
G1 F1800 X122.627 Y90.949 E376.49295
G0 F4320 X122.627 Y90.454
G1 F1800 X119.545 Y87.372 E376.90484
G0 F4320 X120.04 Y87.372
G1 F1800 X122.627 Y89.959 E377.25057
G0 F4320 X122.627 Y89.464
G1 F1800 X120.535 Y87.372 E377.53016
G0 F4320 X121.03 Y87.372
G1 F1800 X122.627 Y88.969 E377.74358
G0 F4320 X122.627 Y88.474
G1 F1800 X121.525 Y87.372 E377.89086
G0 F4320 X122.02 Y87.372
G1 F1800 X122.627 Y87.979 E377.97198
G0 F4320 X122.627 Y87.484
G1 F1800 X122.515 Y87.372 E377.98695
;MESH:NONMESH
G0 F600 X122.515 Y87.372 Z0.47
G0 F4320 X99.875 Y136.125
;TIME_ELAPSED:142.426954
;LAYER:1
M106 S255
;TYPE:WALL-INNER
;MESH:hopperV2.stl
G1 F2100 X99.875 Y86.875 E381.43445
G1 X123.125 Y86.875 E383.06195
G1 X123.125 Y136.125 E386.50945
G1 X99.875 Y136.125 E388.13695
G0 F5760 X99.525 Y136.475
G1 F2100 X99.525 Y86.525 E391.63345
G1 X123.475 Y86.525 E393.30995
G1 X123.475 Y136.475 E396.80645
G1 X99.525 Y136.475 E398.48295
G0 F5760 X99.2 Y136.8
;TYPE:WALL-OUTER
G1 F1800 X99.2 Y86.2 E402.02495
G1 X123.8 Y86.2 E403.74695
G1 X123.8 Y136.8 E407.28895
G1 X99.2 Y136.8 E409.01095
G0 F5760 X99.2 Y136.6
G0 X99.595 Y136.405
G0 X100.215 Y135.785
;TYPE:SKIN
G1 F1500 X100.215 Y87.215 E412.41085
G1 X122.785 Y87.215 E413.99075
G1 X122.785 Y135.785 E417.39065
G1 X100.215 Y135.785 E418.97055
G0 F5760 X122.254 Y135.627
G1 F1500 X122.627 Y135.254 E419.00747
G0 F5760 X122.627 Y134.759
G1 F1500 X121.759 Y135.627 E419.0934
G0 F5760 X121.264 Y135.627
G1 F1500 X122.627 Y134.264 E419.22833
G0 F5760 X122.627 Y133.769
G1 F1500 X120.769 Y135.627 E419.41226
G0 F5760 X120.274 Y135.627
G1 F1500 X122.627 Y133.274 E419.6452
G0 F5760 X122.627 Y132.779
G1 F1500 X119.779 Y135.627 E419.92714
G0 F5760 X119.284 Y135.627
G1 F1500 X122.627 Y132.284 E420.25808
G0 F5760 X122.627 Y131.789
G1 F1500 X118.789 Y135.627 E420.63802
G0 F5760 X118.294 Y135.627
G1 F1500 X122.627 Y131.294 E421.06696
G0 F5760 X122.627 Y130.799
G1 F1500 X117.799 Y135.627 E421.54491
G0 F5760 X117.304 Y135.627
G1 F1500 X122.627 Y130.304 E422.07186
G0 F5760 X122.627 Y129.809
G1 F1500 X116.809 Y135.627 E422.64781
G0 F5760 X116.314 Y135.627
G1 F1500 X122.627 Y129.314 E423.27277
G0 F5760 X122.627 Y128.82
G1 F1500 X115.819 Y135.627 E423.94668
G0 F5760 X115.324 Y135.627
G1 F1500 X122.627 Y128.325 E424.66959
G0 F5760 X122.627 Y127.83
G1 F1500 X114.829 Y135.627 E425.4415
G0 F5760 X114.334 Y135.627
G1 F1500 X122.627 Y127.335 E426.26242
G0 F5760 X122.627 Y126.84
G1 F1500 X113.839 Y135.627 E427.13233
G0 F5760 X113.344 Y135.627
G1 F1500 X122.627 Y126.345 E428.05126
G0 F5760 X122.627 Y125.85
G1 F1500 X112.849 Y135.627 E429.01918
G0 F5760 X112.355 Y135.627
G1 F1500 X122.627 Y125.355 E430.03605
G0 F5760 X122.627 Y124.86
G1 F1500 X111.86 Y135.627 E431.10193
G0 F5760 X111.365 Y135.627
G1 F1500 X122.627 Y124.365 E432.21681
G0 F5760 X122.627 Y123.87
G1 F1500 X110.87 Y135.627 E433.3807
G0 F5760 X110.375 Y135.627
G1 F1500 X122.627 Y123.375 E434.59358
G0 F5760 X122.627 Y122.88
G1 F1500 X109.88 Y135.627 E435.85547
G0 F5760 X109.385 Y135.627
G1 F1500 X122.627 Y122.385 E437.16636
G0 F5760 X122.627 Y121.89
G1 F1500 X108.89 Y135.627 E438.52626
G0 F5760 X108.395 Y135.627
G1 F1500 X122.627 Y121.395 E439.93515
G0 F5760 X122.627 Y120.9
G1 F1500 X107.9 Y135.627 E441.39305
G0 F5760 X107.405 Y135.627
G1 F1500 X122.627 Y120.405 E442.89995
G0 F5760 X122.627 Y119.91
G1 F1500 X106.91 Y135.627 E444.45586
G0 F5760 X106.415 Y135.627
G1 F1500 X122.627 Y119.415 E446.06076
G0 F5760 X122.627 Y118.92
