;FLAVOR:UltiGCode
;TIME:5470
;MATERIAL:11354
;MATERIAL2:0
;NOZZLE_DIAMETER:0.4
;MINX:93.725
;MINY:58.642
;MINZ:0.27
;MAXX:129.25
;MAXY:139.692
;MAXZ:24.87
;Generated with Cura_SteamEngine 4.6.1
M82 ;absolute extrusion mode

G92 E0
G92 E0
G10
;LAYER_COUNT:124
;LAYER:0
M107
G0 F4320 X122.788 Y59.049 Z0.27
;TYPE:SKIRT
G11
G1 F1800 X123.275 Y59.175 E0.04754
G1 X123.737 Y59.377 E0.09519
G1 X124.161 Y59.648 E0.14274
G1 X124.537 Y59.984 E0.19039
G1 X124.855 Y60.374 E0.23795
G1 X125.107 Y60.81 E0.28553
G1 X125.287 Y61.28 E0.3331
G1 X125.39 Y61.773 E0.38069
G1 X125.424 Y62.408 E0.44078
G1 X125.425 Y66.941 E0.86915
G1 X125.465 Y69.74 E1.13368
G1 X125.58 Y72.456 E1.39058
G1 X125.773 Y75.174 E1.64807
G1 X126.047 Y77.945 E1.91121
G1 X126.385 Y80.588 E2.16301
G1 X126.818 Y83.341 E2.42636
G1 X127.32 Y86.044 E2.68617
G1 X127.897 Y88.727 E2.94551
G1 X128.493 Y91.164 E3.18259
G1 X128.779 Y92.275 E3.291
G1 X128.878 Y93.003 E3.36043
G1 X128.899 Y94.041 E3.45854
G1 X128.9 Y104.79 E4.47432
G1 X128.89 Y105.488 E4.54029
G1 X128.802 Y106.184 E4.60659
G1 X128.684 Y106.674 E4.65422
G1 X128.205 Y108.519 E4.83435
G1 X127.596 Y111.164 E5.09084
G1 X127.042 Y113.915 E5.35603
G1 X126.59 Y116.578 E5.61128
G1 X126.208 Y119.261 E5.86738
G1 X125.897 Y122 E6.12788
G1 X125.665 Y124.743 E6.38802
G1 X125.512 Y127.463 E6.64547
G1 X125.425 Y131.55 E7.03178
G1 X125.425 Y135.475 E7.40269
G1 X125.415 Y136.202 E7.4714
G1 X125.368 Y136.703 E7.51895
G1 X125.242 Y137.191 E7.56658
G1 X125.041 Y137.652 E7.6141
G1 X124.77 Y138.077 E7.66173
G1 X124.435 Y138.452 E7.70925
G1 X124.044 Y138.771 E7.75694
G1 X123.608 Y139.023 E7.80453
G1 X123.138 Y139.203 E7.85209
G1 X122.645 Y139.307 E7.8997
G1 X122.009 Y139.341 E7.95989
G1 X97.916 Y139.342 E10.23668
G1 X97.218 Y139.333 E10.30265
G1 X96.717 Y139.286 E10.3502
G1 X96.229 Y139.161 E10.3978
G1 X95.767 Y138.961 E10.44538
G1 X95.343 Y138.689 E10.49298
G1 X94.966 Y138.355 E10.54058
G1 X94.648 Y137.964 E10.58821
G1 X94.395 Y137.529 E10.63576
G1 X94.214 Y137.059 E10.68335
G1 X94.11 Y136.566 E10.73097
G1 X94.076 Y135.911 E10.79295
G1 X94.075 Y62.798 E17.70213
G1 X94.084 Y62.133 E17.76498
G1 X94.131 Y61.632 E17.81253
G1 X94.256 Y61.144 E17.86013
G1 X94.457 Y60.682 E17.90775
G1 X94.729 Y60.258 E17.95535
G1 X95.064 Y59.882 E18.00294
G1 X95.454 Y59.564 E18.05049
G1 X95.89 Y59.311 E18.09813
G1 X96.36 Y59.131 E18.14569
G1 X96.853 Y59.027 E18.1933
G1 X97.491 Y58.993 E18.25368
G1 X121.588 Y58.992 E20.53085
G1 X122.286 Y59.002 E20.59681
G1 X122.788 Y59.049 E20.64446
G0 F4320 X122.82 Y58.7
G1 F1800 X123.335 Y58.826 E20.69456
G1 X123.826 Y59.028 E20.74474
G1 X124.281 Y59.302 E20.79493
G1 X124.689 Y59.641 E20.84506
G1 X125.042 Y60.037 E20.89519
G1 X125.332 Y60.482 E20.94538
G1 X125.551 Y60.965 E20.9955
G1 X125.696 Y61.476 E21.04569
G1 X125.765 Y62.078 E21.10296
G1 X125.775 Y66.936 E21.56204
G1 X125.814 Y69.72 E21.82515
G1 X125.93 Y72.454 E22.08375
G1 X126.121 Y75.147 E22.33887
G1 X126.395 Y77.905 E22.60079
G1 X126.736 Y80.575 E22.85515
G1 X127.158 Y83.257 E23.11172
G1 X127.663 Y85.975 E23.37297
G1 X128.238 Y88.646 E23.63116
G1 X128.832 Y91.077 E23.86765
G1 X129.118 Y92.188 E23.97606
G1 X129.211 Y92.711 E24.02626
G1 X129.249 Y94.034 E24.15133
G1 X129.25 Y104.795 E25.16825
G1 X129.24 Y105.493 E25.23422
G1 X129.143 Y106.266 E25.30784
G1 X129.023 Y106.762 E25.35606
G1 X128.541 Y108.617 E25.53718
G1 X127.939 Y111.236 E25.79113
G1 X127.387 Y113.974 E26.05508
G1 X126.938 Y116.616 E26.30833
G1 X126.555 Y119.31 E26.56547
G1 X126.242 Y122.07 E26.82796
G1 X126.014 Y124.758 E27.08289
G1 X125.862 Y127.462 E27.33882
G1 X125.775 Y131.577 E27.72777
G1 X125.775 Y135.479 E28.09651
G1 X125.765 Y136.206 E28.16522
G1 X125.717 Y136.735 E28.21542
G1 X125.591 Y137.251 E28.26561
G1 X125.389 Y137.741 E28.3157
G1 X125.116 Y138.196 E28.36584
G1 X124.778 Y138.605 E28.41598
G1 X124.382 Y138.958 E28.46611
G1 X123.937 Y139.248 E28.51631
G1 X123.454 Y139.467 E28.56642
G1 X122.943 Y139.612 E28.61662
G1 X122.339 Y139.682 E28.67408
G1 X97.912 Y139.692 E30.98243
G1 X97.214 Y139.683 E31.0484
G1 X96.685 Y139.636 E31.09858
G1 X96.169 Y139.51 E31.14878
G1 X95.678 Y139.309 E31.19892
G1 X95.223 Y139.036 E31.24906
G1 X94.814 Y138.698 E31.2992
G1 X94.461 Y138.302 E31.34933
G1 X94.171 Y137.858 E31.39945
G1 X93.951 Y137.375 E31.4496
G1 X93.805 Y136.864 E31.49982
G1 X93.735 Y136.253 E31.55794
G1 X93.725 Y62.793 E38.49991
G1 X93.734 Y62.128 E38.56276
G1 X93.781 Y61.6 E38.61285
G1 X93.907 Y61.084 E38.66305
G1 X94.109 Y60.593 E38.71322
G1 X94.382 Y60.139 E38.76328
G1 X94.721 Y59.73 E38.81348
G1 X95.117 Y59.377 E38.86362
G1 X95.561 Y59.087 E38.91373
G1 X96.044 Y58.867 E38.96389
G1 X96.555 Y58.722 E39.01408
G1 X97.16 Y58.652 E39.07164
G1 X121.593 Y58.642 E41.38055
G1 X122.291 Y58.652 E41.44652
G1 X122.82 Y58.7 E41.49672
G0 F4320 X123.04 Y93.176
;TYPE:SUPPORT
G1 F1800 X125.548 Y93.178 E41.73372
G1 X125.55 Y105.379 E42.88672
G1 X123.057 Y105.38 E43.12231
G1 X123.04 Y93.176 E44.27559
G0 F4320 X123.18 Y93.32
G1 F1800 X125.409 Y93.32 E44.48623
G0 F4320 X123.649 Y93.317
G1 F1800 X123.649 Y105.24 E45.61295
G0 F4320 X123.196 Y104.985
G1 F1800 X125.41 Y104.985 E45.82217
G0 F4320 X125.41 Y102.652
G1 F1800 X123.193 Y102.652 E46.03168
G0 F4320 X123.189 Y100.319
G1 F1800 X125.41 Y100.319 E46.24156
G0 F4320 X125.409 Y97.986
G1 F1800 X123.186 Y97.986 E46.45164
G0 F4320 X123.183 Y95.653
G1 F1800 X125.409 Y95.653 E46.66199
G10
;MESH:mountV2.stl
G0 F4320 X122.864 Y95.651
G0 X121.705 Y95.653
G0 X98.125 Y135.292
;TYPE:WALL-INNER
G11
G1 F1800 X98.125 Y63.042 E53.48962
G1 X121.375 Y63.042 E55.68674
G1 X121.375 Y135.292 E62.51437
G1 X98.125 Y135.292 E64.71149
G0 F4320 X97.775 Y135.642
G1 F1800 X97.775 Y62.692 E71.60527
G1 X121.725 Y62.692 E73.86854
G1 X121.725 Y135.642 E80.76232
G1 X97.775 Y135.642 E83.02559
G0 F4320 X97.45 Y135.967
;TYPE:WALL-OUTER
G1 F1800 X97.45 Y62.367 E89.98079
G1 X122.05 Y62.367 E92.30549
G1 X122.05 Y135.967 E99.26069
G1 X97.45 Y135.967 E101.58539
G0 F4320 X97.45 Y135.767
G0 X97.845 Y135.572
G0 X98.465 Y134.952
;TYPE:SKIN
G1 F1800 X98.465 Y63.382 E108.34876
G1 X121.035 Y63.382 E110.48162
G1 X121.035 Y134.952 E117.24499
G1 X98.465 Y134.952 E119.37785
G0 F4320 X99.156 Y134.794
G1 F1800 X98.621 Y134.259 E119.44935
G0 F4320 X98.621 Y133.764
G1 F1800 X99.651 Y134.794 E119.58701
G0 F4320 X100.146 Y134.794
G1 F1800 X98.621 Y133.269 E119.79081
G0 F4320 X98.621 Y132.774
G1 F1800 X100.641 Y134.794 E120.06077
G0 F4320 X101.136 Y134.794
G1 F1800 X98.621 Y132.279 E120.39688
G0 F4320 X98.621 Y131.784
G1 F1800 X101.631 Y134.794 E120.79915
G0 F4320 X102.126 Y134.794
G1 F1800 X98.621 Y131.289 E121.26757
G0 F4320 X98.621 Y130.794
G1 F1800 X102.62 Y134.794 E121.80207
G0 F4320 X103.115 Y134.794
G1 F1800 X98.621 Y130.299 E122.40273
G0 F4320 X98.621 Y129.805
G1 F1800 X103.61 Y134.794 E123.06948
G0 F4320 X104.105 Y134.794
G1 F1800 X98.621 Y129.31 E123.80238
G0 F4320 X98.621 Y128.815
G1 F1800 X104.6 Y134.794 E124.60143
G0 F4320 X105.095 Y134.794
G1 F1800 X98.621 Y128.32 E125.46664
G0 F4320 X98.621 Y127.825
G1 F1800 X105.59 Y134.794 E126.398
G0 F4320 X106.085 Y134.794
G1 F1800 X98.621 Y127.33 E127.39551
G0 F4320 X98.621 Y126.835
G1 F1800 X106.58 Y134.794 E128.45918
G0 F4320 X107.075 Y134.794
G1 F1800 X98.621 Y126.34 E129.589
G0 F4320 X98.621 Y125.845
G1 F1800 X107.57 Y134.794 E130.78497
G0 F4320 X108.065 Y134.794
G1 F1800 X98.621 Y125.35 E132.04709
G0 F4320 X98.621 Y124.855
G1 F1800 X108.56 Y134.794 E133.37537
G0 F4320 X109.055 Y134.794
G1 F1800 X98.621 Y124.36 E134.76981
G0 F4320 X98.621 Y123.865
G1 F1800 X109.55 Y134.794 E136.23039
G0 F4320 X110.045 Y134.794
G1 F1800 X98.621 Y123.37 E137.75713
G0 F4320 X98.621 Y122.875
G1 F1800 X110.54 Y134.794 E139.35003
G0 F4320 X111.035 Y134.794
G1 F1800 X98.621 Y122.38 E141.00907
G0 F4320 X98.621 Y121.885
G1 F1800 X111.53 Y134.794 E142.73427
G0 F4320 X112.025 Y134.794
G1 F1800 X98.621 Y121.39 E144.52563
G0 F4320 X98.621 Y120.895
G1 F1800 X112.52 Y134.794 E146.38313
G0 F4320 X113.015 Y134.794
G1 F1800 X98.621 Y120.4 E148.30679
G0 F4320 X98.621 Y119.905
G1 F1800 X113.51 Y134.794 E150.29661
G0 F4320 X114.005 Y134.794
G1 F1800 X98.621 Y119.41 E152.35257
G0 F4320 X98.621 Y118.915
G1 F1800 X114.5 Y134.794 E154.47469
G0 F4320 X114.995 Y134.794
G1 F1800 X98.621 Y118.42 E156.66297
G0 F4320 X98.621 Y117.925
G1 F1800 X115.49 Y134.794 E158.91739
G0 F4320 X115.985 Y134.794
G1 F1800 X98.621 Y117.43 E161.23797
G0 F4320 X98.621 Y116.935
G1 F1800 X116.48 Y134.794 E163.62471
G0 F4320 X116.975 Y134.794
G1 F1800 X98.621 Y116.44 E166.07759
G0 F4320 X98.621 Y115.945
G1 F1800 X117.47 Y134.794 E168.59663
G0 F4320 X117.965 Y134.794
G1 F1800 X98.621 Y115.45 E171.18183
G0 F4320 X98.621 Y114.955
G1 F1800 X118.46 Y134.794 E173.83317
G0 F4320 X118.955 Y134.794
G1 F1800 X98.621 Y114.46 E176.55067
G0 F4320 X98.621 Y113.965
G1 F1800 X119.45 Y134.794 E179.33433
G0 F4320 X119.945 Y134.794
G1 F1800 X98.621 Y113.47 E182.18414
G0 F4320 X98.621 Y112.975
G1 F1800 X120.44 Y134.794 E185.1001
G0 F4320 X120.878 Y134.737
G1 F1800 X98.621 Y112.48 E188.07459
G0 F4320 X98.621 Y111.985
G1 F1800 X120.878 Y134.242 E191.04909
G0 F4320 X120.878 Y133.747
G1 F1800 X98.621 Y111.49 E194.02359
G0 F4320 X98.621 Y110.995
G1 F1800 X120.878 Y133.252 E196.99808
G0 F4320 X120.878 Y132.757
G1 F1800 X98.621 Y110.5 E199.97258
G0 F4320 X98.621 Y110.006
G1 F1800 X120.878 Y132.262 E202.94701
G0 F4320 X120.878 Y131.767
G1 F1800 X98.621 Y109.511 E205.92144
G0 F4320 X98.621 Y109.016
G1 F1800 X120.878 Y131.272 E208.89587
G0 F4320 X120.878 Y130.777
G1 F1800 X98.621 Y108.521 E211.8703
G0 F4320 X98.621 Y108.026
G1 F1800 X120.878 Y130.283 E214.84479
G0 F4320 X120.878 Y129.788
G1 F1800 X98.621 Y107.531 E217.81929
G0 F4320 X98.621 Y107.036
G1 F1800 X120.878 Y129.293 E220.79378
G0 F4320 X120.878 Y128.798
G1 F1800 X98.621 Y106.541 E223.76828
G0 F4320 X98.621 Y106.046
G1 F1800 X120.878 Y128.303 E226.74278
G0 F4320 X120.878 Y127.808
G1 F1800 X98.621 Y105.551 E229.71727
G0 F4320 X98.621 Y105.056
G1 F1800 X120.878 Y127.313 E232.69177
G0 F4320 X120.878 Y126.818
G1 F1800 X98.621 Y104.561 E235.66627
G0 F4320 X98.621 Y104.066
G1 F1800 X120.878 Y126.323 E238.64076
G0 F4320 X120.878 Y125.828
G1 F1800 X98.621 Y103.571 E241.61526
G0 F4320 X98.621 Y103.076
G1 F1800 X120.878 Y125.333 E244.58976
G0 F4320 X120.878 Y124.838
G1 F1800 X98.621 Y102.581 E247.56425
G0 F4320 X98.621 Y102.086
G1 F1800 X120.878 Y124.343 E250.53875
G0 F4320 X120.878 Y123.848
G1 F1800 X98.621 Y101.591 E253.51324
G0 F4320 X98.621 Y101.096
G1 F1800 X120.878 Y123.353 E256.48774
G0 F4320 X120.878 Y122.858
G1 F1800 X98.621 Y100.601 E259.46224
G0 F4320 X98.621 Y100.106
G1 F1800 X120.878 Y122.363 E262.43673
G0 F4320 X120.878 Y121.868
G1 F1800 X98.621 Y99.611 E265.41123
G0 F4320 X98.621 Y99.116
G1 F1800 X120.878 Y121.373 E268.38573
G0 F4320 X120.878 Y120.878
G1 F1800 X98.621 Y98.621 E271.36022
G0 F4320 X98.621 Y98.126
G1 F1800 X120.878 Y120.383 E274.33472
G0 F4320 X120.878 Y119.888
G1 F1800 X98.621 Y97.631 E277.30921
G0 F4320 X98.621 Y97.136
G1 F1800 X120.878 Y119.393 E280.28371
G0 F4320 X120.878 Y118.898
G1 F1800 X98.621 Y96.641 E283.25821
G0 F4320 X98.621 Y96.146
G1 F1800 X120.878 Y118.403 E286.2327
G0 F4320 X120.878 Y117.908
G1 F1800 X98.621 Y95.651 E289.2072
G0 F4320 X98.621 Y95.156
G1 F1800 X120.878 Y117.413 E292.1817
G0 F4320 X120.878 Y116.918
G1 F1800 X98.621 Y94.661 E295.15619
G0 F4320 X98.621 Y94.166
G1 F1800 X120.878 Y116.423 E298.13069
G0 F4320 X120.878 Y115.928
G1 F1800 X98.621 Y93.671 E301.10518
G0 F4320 X98.621 Y93.176
G1 F1800 X120.878 Y115.433 E304.07968
G0 F4320 X120.878 Y114.938
G1 F1800 X98.621 Y92.681 E307.05418
G0 F4320 X98.621 Y92.186
G1 F1800 X120.878 Y114.443 E310.02867
G0 F4320 X120.878 Y113.948
G1 F1800 X98.621 Y91.691 E313.00317
G0 F4320 X98.621 Y91.196
G1 F1800 X120.878 Y113.453 E315.97767
G0 F4320 X120.878 Y112.958
G1 F1800 X98.621 Y90.702 E318.9521
G0 F4320 X98.621 Y90.207
G1 F1800 X120.878 Y112.463 E321.92653
G0 F4320 X120.878 Y111.968
G1 F1800 X98.621 Y89.712 E324.90095
G0 F4320 X98.621 Y89.217
G1 F1800 X120.878 Y111.473 E327.87538
G0 F4320 X120.878 Y110.978
G1 F1800 X98.621 Y88.722 E330.84981
G0 F4320 X98.621 Y88.227
G1 F1800 X120.878 Y110.484 E333.82431
G0 F4320 X120.878 Y109.989
G1 F1800 X98.621 Y87.732 E336.79881
G0 F4320 X98.621 Y87.237
G1 F1800 X120.878 Y109.494 E339.7733
G0 F4320 X120.878 Y108.999
G1 F1800 X98.621 Y86.742 E342.7478
G0 F4320 X98.621 Y86.247
G1 F1800 X120.878 Y108.504 E345.72229
G0 F4320 X120.878 Y108.009
G1 F1800 X98.621 Y85.752 E348.69679
G0 F4320 X98.621 Y85.257
G1 F1800 X120.878 Y107.514 E351.67129
G0 F4320 X120.878 Y107.019
G1 F1800 X98.621 Y84.762 E354.64578
G0 F4320 X98.621 Y84.267
G1 F1800 X120.878 Y106.524 E357.62028
G0 F4320 X120.878 Y106.029
G1 F1800 X98.621 Y83.772 E360.59478
G0 F4320 X98.621 Y83.277
G1 F1800 X120.878 Y105.534 E363.56927
G0 F4320 X120.878 Y105.039
G1 F1800 X98.621 Y82.782 E366.54377
G0 F4320 X98.621 Y82.287
G1 F1800 X120.878 Y104.544 E369.51827
G0 F4320 X120.878 Y104.049
G1 F1800 X98.621 Y81.792 E372.49276
G0 F4320 X98.621 Y81.297
G1 F1800 X120.878 Y103.554 E375.46726
G0 F4320 X120.878 Y103.059
G1 F1800 X98.621 Y80.802 E378.44175
G0 F4320 X98.621 Y80.307
G1 F1800 X120.878 Y102.564 E381.41625
G0 F4320 X120.878 Y102.069
G1 F1800 X98.621 Y79.812 E384.39075
G0 F4320 X98.621 Y79.317
G1 F1800 X120.878 Y101.574 E387.36524
G0 F4320 X120.878 Y101.079
G1 F1800 X98.621 Y78.822 E390.33974
G0 F4320 X98.621 Y78.327
G1 F1800 X120.878 Y100.584 E393.31424
G0 F4320 X120.878 Y100.089
G1 F1800 X98.621 Y77.832 E396.28873
G0 F4320 X98.621 Y77.337
G1 F1800 X120.878 Y99.594 E399.26323
G0 F4320 X120.877 Y99.098
G1 F1800 X98.621 Y76.842 E402.23759
G0 F4320 X98.621 Y76.347
G1 F1800 X120.877 Y98.603 E405.21195
G0 F4320 X120.877 Y98.108
G1 F1800 X98.621 Y75.852 E408.18632
G0 F4320 X98.621 Y75.357
G1 F1800 X120.877 Y97.613 E411.16068
G0 F4320 X120.877 Y97.118
G1 F1800 X98.621 Y74.862 E414.13504
G0 F4320 X98.621 Y74.367
G1 F1800 X120.877 Y96.624 E417.10947
G0 F4320 X120.877 Y96.129
G1 F1800 X98.621 Y73.872 E420.0839
G0 F4320 X98.621 Y73.377
G1 F1800 X120.877 Y95.634 E423.05833
G0 F4320 X120.877 Y95.139
G1 F1800 X98.621 Y72.882 E426.03276
G0 F4320 X98.621 Y72.387
G1 F1800 X120.877 Y94.644 E429.00719
G0 F4320 X120.877 Y94.149
G1 F1800 X98.621 Y71.892 E431.98162
G0 F4320 X98.621 Y71.397
G1 F1800 X120.877 Y93.654 E434.95605
G0 F4320 X120.877 Y93.159
G1 F1800 X98.621 Y70.903 E437.93041
G0 F4320 X98.621 Y70.408
G1 F1800 X120.877 Y92.664 E440.90477
G0 F4320 X120.877 Y92.169
G1 F1800 X98.621 Y69.913 E443.87914
G0 F4320 X98.621 Y69.418
G1 F1800 X120.877 Y91.674 E446.8535
G0 F4320 X120.877 Y91.179
G1 F1800 X98.621 Y68.923 E449.82786
G0 F4320 X98.621 Y68.428
G1 F1800 X120.877 Y90.684 E452.80222
G0 F4320 X120.877 Y90.189
G1 F1800 X98.621 Y67.933 E455.77659
G0 F4320 X98.621 Y67.438
G1 F1800 X120.877 Y89.694 E458.75095
G0 F4320 X120.877 Y89.199
G1 F1800 X98.621 Y66.943 E461.72531
G0 F4320 X98.621 Y66.448
G1 F1800 X120.877 Y88.704 E464.69967
G0 F4320 X120.877 Y88.209
G1 F1800 X98.621 Y65.953 E467.67404
G0 F4320 X98.621 Y65.458
G1 F1800 X120.877 Y87.714 E470.6484
G0 F4320 X120.877 Y87.219
G1 F1800 X98.621 Y64.963 E473.62276
G0 F4320 X98.621 Y64.468
G1 F1800 X120.877 Y86.724 E476.59712
G0 F4320 X120.877 Y86.229
G1 F1800 X98.621 Y63.973 E479.57149
G0 F4320 X98.682 Y63.539
G1 F1800 X120.877 Y85.734 E482.5377
G0 F4320 X120.877 Y85.239
G1 F1800 X99.177 Y63.539 E485.43775
G0 F4320 X99.672 Y63.539
G1 F1800 X120.877 Y84.744 E488.27166
G0 F4320 X120.877 Y84.249
G1 F1800 X100.167 Y63.539 E491.03941
G0 F4320 X100.662 Y63.539
G1 F1800 X120.877 Y83.754 E493.74101
G0 F4320 X120.877 Y83.259
G1 F1800 X101.157 Y63.539 E496.37645
G0 F4320 X101.652 Y63.539
G1 F1800 X120.877 Y82.764 E498.94574
G0 F4320 X120.877 Y82.269
G1 F1800 X102.147 Y63.539 E501.44888
G0 F4320 X102.642 Y63.539
G1 F1800 X120.877 Y81.774 E503.88586
G0 F4320 X120.877 Y81.279
G1 F1800 X103.137 Y63.539 E506.25669
G0 F4320 X103.632 Y63.539
G1 F1800 X120.877 Y80.784 E508.56137
G0 F4320 X120.877 Y80.289
G1 F1800 X104.127 Y63.539 E510.79989
G0 F4320 X104.622 Y63.539
G1 F1800 X120.877 Y79.794 E512.97226
G0 F4320 X120.877 Y79.299
G1 F1800 X105.117 Y63.539 E515.07848
G0 F4320 X105.612 Y63.539
