;FLAVOR:UltiGCode
;TIME:1788
;MATERIAL:3862
;MATERIAL2:0
;NOZZLE_DIAMETER:0.4
;MINX:89.345
;MINY:89.345
;MINZ:0.27
;MAXX:133.654
;MAXY:133.654
;MAXZ:44.27
;Generated with Cura_SteamEngine 4.6.1
M82 ;absolute extrusion mode

G92 E0
G92 E0
G10
;LAYER_COUNT:221
;LAYER:0
M107
G0 F4320 X96.102 Y95.567 Z0.27
;TYPE:SKIRT
G11
G1 F1800 X96.775 Y94.944 E0.08667
G1 X97.459 Y94.361 E0.1716
G1 X98.16 Y93.808 E0.25597
G1 X98.914 Y93.265 E0.34378
G1 X99.653 Y92.775 E0.42757
G1 X100.455 Y92.293 E0.516
G1 X101.227 Y91.869 E0.59923
G1 X102.046 Y91.462 E0.68565
G1 X102.871 Y91.093 E0.77106
G1 X103.71 Y90.758 E0.85643
G1 X104.571 Y90.455 E0.94269
G1 X105.435 Y90.191 E1.02806
G1 X106.313 Y89.96 E1.11386
G1 X107.184 Y89.768 E1.19814
G1 X108.098 Y89.607 E1.28584
G1 X108.982 Y89.488 E1.37014
G1 X109.892 Y89.403 E1.45651
G1 X110.797 Y89.356 E1.54214
G1 X111.693 Y89.345 E1.62682
G1 X112.614 Y89.373 E1.7139
G1 X113.507 Y89.435 E1.79849
G1 X114.412 Y89.536 E1.88454
G1 X115.311 Y89.675 E1.97051
G1 X116.19 Y89.846 E2.05513
G1 X117.095 Y90.063 E2.14308
G1 X117.946 Y90.303 E2.22663
G1 X118.809 Y90.585 E2.31243
G1 X119.657 Y90.9 E2.39792
G1 X120.499 Y91.254 E2.48423
G1 X121.314 Y91.636 E2.56929
G1 X122.116 Y92.052 E2.65467
G1 X122.906 Y92.504 E2.74068
G1 X123.677 Y92.989 E2.82675
G1 X124.426 Y93.504 E2.91265
G1 X125.153 Y94.05 E2.99857
G1 X125.85 Y94.619 E3.0836
G1 X126.526 Y95.217 E3.16889
G1 X127.183 Y95.849 E3.25504
G1 X127.804 Y96.497 E3.33985
G1 X128.406 Y97.178 E3.42575
G1 X128.986 Y97.892 E3.51268
G1 X129.518 Y98.605 E3.59674
G1 X130.03 Y99.351 E3.68225
G1 X130.521 Y100.135 E3.76967
G1 X130.967 Y100.92 E3.85499
G1 X131.38 Y101.718 E3.9399
G1 X131.765 Y102.542 E4.02585
G1 X132.111 Y103.37 E4.11065
G1 X132.43 Y104.231 E4.19742
G1 X132.709 Y105.089 E4.28268
G1 X132.953 Y105.96 E4.36816
G1 X133.162 Y106.842 E4.45381
G1 X133.332 Y107.717 E4.53805
G1 X133.472 Y108.648 E4.62702
G1 X133.568 Y109.522 E4.71011
G1 X133.631 Y110.431 E4.79621
G1 X133.654 Y111.379 E4.88582
G1 X133.628 Y112.466 E4.98858
G1 X133.56 Y113.468 E5.08348
G1 X133.455 Y114.467 E5.17841
G1 X133.371 Y115.035 E5.23267
G1 X133.179 Y116.069 E5.33205
G1 X132.96 Y117.013 E5.42363
G1 X132.745 Y117.793 E5.50009
G1 X132.499 Y118.571 E5.5772
G1 X132.231 Y119.325 E5.65282
G1 X131.92 Y120.104 E5.73208
G1 X131.582 Y120.863 E5.8106
G1 X131.243 Y121.559 E5.88376
G1 X130.851 Y122.295 E5.96256
G1 X130.438 Y123.005 E6.04018
G1 X130.009 Y123.683 E6.116
G1 X129.537 Y124.371 E6.19484
G1 X129.061 Y125.014 E6.27045
G1 X128.543 Y125.661 E6.34877
G1 X128 Y126.288 E6.42715
G1 X127.475 Y126.856 E6.50024
G1 X126.872 Y127.458 E6.58076
G1 X126.285 Y128.004 E6.65652
G1 X125.679 Y128.528 E6.73223
G1 X125.026 Y129.051 E6.81129
G1 X124.381 Y129.53 E6.88721
G1 X123.705 Y129.994 E6.96469
G1 X123.019 Y130.429 E7.04146
G1 X122.318 Y130.839 E7.1182
G1 X121.587 Y131.23 E7.19654
G1 X120.849 Y131.59 E7.27414
G1 X120.118 Y131.914 E7.3497
G1 X119.363 Y132.217 E7.42658
G1 X118.574 Y132.499 E7.50575
G1 X117.816 Y132.739 E7.58089
G1 X117.031 Y132.958 E7.65791
G1 X116.231 Y133.148 E7.73561
G1 X115.441 Y133.306 E7.81174
G1 X113.948 Y133.52 E7.95427
G1 X113.387 Y133.575 E8.00754
G1 X112.338 Y133.64 E8.10686
G1 X111.754 Y133.654 E8.16207
G1 X110.702 Y133.641 E8.26149
G1 X110.125 Y133.613 E8.31608
G1 X109.077 Y133.523 E8.41548
G1 X108.501 Y133.452 E8.47032
G1 X107.462 Y133.285 E8.56977
G1 X106.519 Y133.092 E8.66073
G1 X105.718 Y132.891 E8.73877
G1 X104.945 Y132.666 E8.81485
G1 X104.184 Y132.416 E8.89055
G1 X103.411 Y132.13 E8.96843
G1 X102.637 Y131.809 E9.04762
G1 X101.918 Y131.48 E9.12234
G1 X101.189 Y131.114 E9.19942
G1 X100.465 Y130.716 E9.2775
G1 X99.761 Y130.294 E9.35506
G1 X99.085 Y129.854 E9.43129
G1 X98.423 Y129.389 E9.50774
G1 X97.765 Y128.889 E9.58583
G1 X97.132 Y128.369 E9.66325
G1 X96.526 Y127.834 E9.73964
G1 X95.929 Y127.265 E9.81757
G1 X95.319 Y126.639 E9.90017
G1 X94.712 Y125.964 E9.98596
G1 X94.122 Y125.248 E10.07363
G1 X93.584 Y124.539 E10.15774
G1 X93.071 Y123.803 E10.24252
G1 X92.583 Y123.041 E10.32803
G1 X92.116 Y122.238 E10.41581
G1 X91.699 Y121.447 E10.50031
G1 X91.304 Y120.616 E10.58726
G1 X90.956 Y119.802 E10.67092
G1 X90.628 Y118.94 E10.75808
G1 X90.343 Y118.081 E10.8436
G1 X90.096 Y117.233 E10.92707
G1 X89.876 Y116.339 E11.01407
G1 X89.695 Y115.439 E11.10083
G1 X89.553 Y114.548 E11.18609
G1 X89.448 Y113.651 E11.27143
G1 X89.378 Y112.754 E11.35646
G1 X89.345 Y111.847 E11.44223
G1 X89.351 Y110.926 E11.52926
G1 X89.392 Y110.032 E11.61383
G1 X89.469 Y109.139 E11.69854
G1 X89.586 Y108.226 E11.78552
G1 X89.737 Y107.337 E11.87073
G1 X89.923 Y106.462 E11.95527
G1 X90.156 Y105.555 E12.04376
G1 X90.411 Y104.704 E12.12772
G1 X90.704 Y103.854 E12.21268
G1 X91.031 Y103.015 E12.29777
G1 X91.412 Y102.152 E12.38692
G1 X91.794 Y101.371 E12.46908
G1 X92.225 Y100.57 E12.55504
G1 X92.697 Y99.778 E12.64216
G1 X93.189 Y99.023 E12.72732
G1 X93.713 Y98.288 E12.81263
G1 X94.266 Y97.573 E12.89804
G1 X94.862 Y96.868 E12.98528
G1 X95.461 Y96.213 E13.06916
G1 X96.102 Y95.567 E13.15516
G0 F4320 X96.348 Y95.816
G1 F1800 X97.011 Y95.203 E13.24049
G1 X97.684 Y94.628 E13.32414
G1 X98.375 Y94.085 E13.40719
G1 X99.116 Y93.55 E13.49356
G1 X99.845 Y93.068 E13.57615
G1 X100.633 Y92.594 E13.66305
G1 X101.393 Y92.177 E13.74497
G1 X102.2 Y91.776 E13.83012
G1 X103.012 Y91.414 E13.91414
G1 X103.838 Y91.084 E13.99819
G1 X104.685 Y90.786 E14.08304
G1 X105.535 Y90.526 E14.16704
G1 X106.4 Y90.299 E14.25155
G1 X107.257 Y90.111 E14.33447
G1 X108.156 Y89.952 E14.42074
G1 X109.026 Y89.835 E14.50369
G1 X109.922 Y89.752 E14.58873
G1 X110.813 Y89.705 E14.67305
G1 X111.694 Y89.695 E14.75631
G1 X112.601 Y89.722 E14.84206
G1 X113.48 Y89.784 E14.92533
G1 X114.37 Y89.884 E15.00996
G1 X115.255 Y90.02 E15.09458
G1 X116.121 Y90.189 E15.17796
G1 X117.011 Y90.403 E15.26446
G1 X117.849 Y90.639 E15.34673
G1 X118.698 Y90.917 E15.43115
G1 X119.533 Y91.227 E15.51532
G1 X120.361 Y91.576 E15.60023
G1 X121.163 Y91.952 E15.68394
G1 X121.953 Y92.362 E15.76805
G1 X122.73 Y92.807 E15.85267
G1 X123.489 Y93.284 E15.93738
G1 X124.225 Y93.791 E16.02184
G1 X124.94 Y94.328 E16.10634
G1 X125.627 Y94.888 E16.1901
G1 X126.292 Y95.477 E16.27404
G1 X126.938 Y96.099 E16.35879
G1 X127.55 Y96.737 E16.44233
G1 X128.142 Y97.407 E16.52682
G1 X128.712 Y98.11 E16.61235
G1 X129.236 Y98.813 E16.69521
G1 X129.74 Y99.547 E16.77935
G1 X130.222 Y100.318 E16.86528
G1 X130.662 Y101.091 E16.94933
G1 X131.068 Y101.876 E17.03285
G1 X131.447 Y102.688 E17.11753
G1 X131.788 Y103.503 E17.20101
G1 X132.101 Y104.35 E17.28635
G1 X132.375 Y105.195 E17.37029
G1 X132.615 Y106.052 E17.45439
G1 X132.82 Y106.92 E17.53868
G1 X132.988 Y107.782 E17.62167
G1 X133.126 Y108.697 E17.70911
G1 X133.22 Y109.558 E17.79096
G1 X133.282 Y110.453 E17.87574
G1 X133.304 Y111.384 E17.96375
G1 X133.278 Y112.454 E18.06489
G1 X133.211 Y113.442 E18.15847
G1 X133.107 Y114.428 E18.25216
G1 X133.027 Y114.971 E18.30403
G1 X132.835 Y116.005 E18.40342
G1 X132.62 Y116.93 E18.49316
G1 X132.408 Y117.697 E18.56836
G1 X132.166 Y118.463 E18.64427
G1 X131.902 Y119.206 E18.71878
G1 X131.596 Y119.971 E18.79665
G1 X131.263 Y120.719 E18.87402
G1 X130.93 Y121.404 E18.946
G1 X130.543 Y122.128 E19.02358
G1 X130.136 Y122.827 E19.10001
G1 X129.714 Y123.495 E19.17468
G1 X129.25 Y124.171 E19.25216
G1 X128.781 Y124.804 E19.32661
G1 X128.271 Y125.441 E19.40372
G1 X127.737 Y126.057 E19.48076
G1 X127.219 Y126.617 E19.55285
G1 X126.627 Y127.209 E19.63197
G1 X126.048 Y127.746 E19.70659
G1 X125.451 Y128.262 E19.78116
G1 X124.809 Y128.776 E19.85888
G1 X124.174 Y129.248 E19.93365
G1 X123.509 Y129.704 E20.00985
G1 X122.834 Y130.133 E20.08543
G1 X122.143 Y130.536 E20.16102
G1 X121.424 Y130.921 E20.2381
G1 X120.698 Y131.274 E20.31438
G1 X119.978 Y131.593 E20.3888
G1 X119.235 Y131.891 E20.46445
G1 X118.459 Y132.168 E20.54232
G1 X117.712 Y132.405 E20.61637
G1 X116.939 Y132.62 E20.6922
G1 X116.152 Y132.807 E20.76864
G1 X115.375 Y132.963 E20.84353
G1 X113.901 Y133.173 E20.98423
G1 X113.365 Y133.226 E21.03513
G1 X112.316 Y133.291 E21.13445
G1 X111.758 Y133.304 E21.18719
G1 X110.706 Y133.291 E21.28662
G1 X110.155 Y133.264 E21.33875
G1 X109.107 Y133.174 E21.43815
G1 X108.557 Y133.107 E21.49051
G1 X107.518 Y132.94 E21.58995
G1 X106.594 Y132.75 E21.6791
G1 X105.806 Y132.552 E21.75588
G1 X105.045 Y132.331 E21.83076
G1 X104.295 Y132.085 E21.90535
G1 X103.535 Y131.803 E21.98196
G1 X102.773 Y131.486 E22.05995
G1 X102.065 Y131.162 E22.13353
G1 X101.348 Y130.803 E22.20931
G1 X100.636 Y130.411 E22.28611
G1 X99.943 Y129.995 E22.36249
G1 X99.278 Y129.562 E22.43748
G1 X98.626 Y129.104 E22.51278
G1 X97.979 Y128.612 E22.58959
G1 X97.356 Y128.1 E22.6658
G1 X96.759 Y127.573 E22.74105
G1 X96.172 Y127.013 E22.81772
G1 X95.572 Y126.397 E22.89898
G1 X94.975 Y125.732 E22.98343
G1 X94.394 Y125.027 E23.06976
G1 X93.864 Y124.329 E23.15258
G1 X93.359 Y123.605 E23.236
G1 X92.879 Y122.854 E23.32023
G1 X92.421 Y122.065 E23.40644
G1 X92.01 Y121.286 E23.48967
G1 X91.621 Y120.468 E23.57527
G1 X91.278 Y119.666 E23.6577
G1 X90.957 Y118.818 E23.74338
G1 X90.675 Y117.973 E23.82756
G1 X90.433 Y117.138 E23.90972
G1 X90.217 Y116.258 E23.99535
G1 X90.039 Y115.373 E24.08065
G1 X89.899 Y114.496 E24.16458
G1 X89.796 Y113.613 E24.24859
G1 X89.727 Y112.729 E24.33238
G1 X89.695 Y111.837 E24.41673
G1 X89.701 Y110.931 E24.50235
G1 X89.742 Y110.051 E24.5856
G1 X89.817 Y109.171 E24.66906
G1 X89.933 Y108.273 E24.75463
G1 X90.082 Y107.398 E24.8385
G1 X90.264 Y106.536 E24.92176
G1 X90.494 Y105.645 E25.00872
G1 X90.746 Y104.807 E25.09141
G1 X91.034 Y103.97 E25.17506
G1 X91.356 Y103.145 E25.25875
G1 X91.731 Y102.296 E25.34646
G1 X92.107 Y101.526 E25.42744
G1 X92.532 Y100.738 E25.51204
G1 X92.996 Y99.959 E25.59773
G1 X93.481 Y99.217 E25.6815
G1 X93.996 Y98.493 E25.76546
G1 X94.541 Y97.79 E25.84952
G1 X95.127 Y97.096 E25.93535
G1 X95.718 Y96.451 E26.01802
G1 X96.348 Y95.816 E26.10255
G0 F4320 X96.595 Y96.064
G1 F1800 X97.247 Y95.461 E26.18648
G1 X97.909 Y94.896 E26.26872
G1 X98.589 Y94.361 E26.35049
G1 X99.319 Y93.836 E26.43546
G1 X100.036 Y93.362 E26.51668
G1 X100.811 Y92.896 E26.60214
G1 X101.56 Y92.485 E26.68288
G1 X102.353 Y92.091 E26.76656
G1 X103.152 Y91.734 E26.84926
G1 X103.965 Y91.41 E26.93196
G1 X104.799 Y91.117 E27.0155
G1 X105.635 Y90.861 E27.09812
G1 X106.486 Y90.639 E27.18123
G1 X107.33 Y90.453 E27.2629
G1 X108.214 Y90.297 E27.34773
G1 X109.071 Y90.182 E27.42944
G1 X109.952 Y90.1 E27.51306
G1 X110.828 Y90.055 E27.59595
G1 X111.696 Y90.045 E27.67798
G1 X112.588 Y90.072 E27.76231
G1 X113.453 Y90.133 E27.84426
G1 X114.329 Y90.231 E27.92756
G1 X115.2 Y90.366 E28.01085
G1 X116.051 Y90.532 E28.09278
G1 X116.927 Y90.742 E28.17791
G1 X117.752 Y90.976 E28.25895
G1 X118.587 Y91.249 E28.34197
G1 X119.408 Y91.554 E28.42473
G1 X120.223 Y91.897 E28.50829
G1 X121.012 Y92.268 E28.59069
G1 X121.789 Y92.671 E28.6734
G1 X122.554 Y93.109 E28.7567
G1 X123.3 Y93.579 E28.84003
G1 X124.025 Y94.078 E28.9232
G1 X124.728 Y94.606 E29.00628
G1 X125.404 Y95.158 E29.08876
G1 X126.058 Y95.738 E29.17136
G1 X126.694 Y96.35 E29.25477
G1 X127.296 Y96.978 E29.33698
G1 X127.878 Y97.637 E29.42007
G1 X128.439 Y98.329 E29.50425
G1 X128.955 Y99.02 E29.58575
G1 X129.45 Y99.743 E29.66855
G1 X129.924 Y100.502 E29.75311
G1 X130.356 Y101.262 E29.83572
G1 X130.756 Y102.035 E29.91797
G1 X131.128 Y102.833 E30.00117
G1 X131.464 Y103.636 E30.08343
G1 X131.772 Y104.469 E30.16736
G1 X132.041 Y105.301 E30.24999
G1 X132.277 Y106.144 E30.33272
G1 X132.479 Y106.998 E30.41565
G1 X132.644 Y107.846 E30.49729
G1 X132.779 Y108.746 E30.58329
G1 X132.872 Y109.594 E30.66391
G1 X132.932 Y110.475 E30.74735
G1 X132.954 Y111.389 E30.83375
G1 X132.928 Y112.443 E30.93338
G1 X132.862 Y113.416 E31.02554
G1 X132.759 Y114.389 E31.11801
G1 X132.682 Y114.907 E31.16749
G1 X132.49 Y115.941 E31.26688
G1 X132.281 Y116.847 E31.35474
G1 X132.072 Y117.602 E31.42877
G1 X131.833 Y118.356 E31.50352
G1 X131.573 Y119.086 E31.57675
G1 X131.272 Y119.839 E31.65338
G1 X130.944 Y120.574 E31.72944
G1 X130.616 Y121.249 E31.80036
G1 X130.236 Y121.962 E31.87671
G1 X129.835 Y122.648 E31.9518
G1 X129.42 Y123.306 E32.02532
G1 X128.963 Y123.971 E32.10157
G1 X128.501 Y124.594 E32.17487
G1 X128 Y125.22 E32.25064
G1 X127.474 Y125.826 E32.32647
G1 X126.964 Y126.377 E32.39742
G1 X126.381 Y126.959 E32.47526
G1 X125.812 Y127.488 E32.54868
G1 X125.224 Y127.996 E32.62211
G1 X124.593 Y128.501 E32.69849
G1 X123.967 Y128.965 E32.77212
G1 X123.313 Y129.415 E32.84714
G1 X122.648 Y129.836 E32.92152
G1 X121.968 Y130.233 E32.99593
G1 X121.261 Y130.611 E33.07169
G1 X120.547 Y130.958 E33.14671
G1 X119.838 Y131.273 E33.22003
G1 X119.106 Y131.566 E33.29454
G1 X118.344 Y131.838 E33.371
G1 X117.608 Y132.071 E33.44395
G1 X116.848 Y132.282 E33.51849
G1 X116.073 Y132.466 E33.59376
G1 X115.308 Y132.619 E33.66748
G1 X113.855 Y132.826 E33.80618
G1 X113.344 Y132.876 E33.8547
G1 X112.295 Y132.941 E33.95402
G1 X111.762 Y132.954 E34.0044
G1 X110.71 Y132.941 E34.10383
G1 X110.185 Y132.916 E34.15349
G1 X109.137 Y132.826 E34.25289
G1 X108.612 Y132.761 E34.30289
G1 X107.573 Y132.594 E34.40233
G1 X106.669 Y132.408 E34.48955
G1 X105.893 Y132.213 E34.56516
G1 X105.144 Y131.995 E34.63888
G1 X104.407 Y131.753 E34.71218
G1 X103.659 Y131.475 E34.78759
G1 X102.91 Y131.164 E34.86423
G1 X102.213 Y130.845 E34.93667
G1 X101.507 Y130.491 E35.0113
G1 X100.806 Y130.105 E35.08693
G1 X100.125 Y129.696 E35.162
G1 X99.471 Y129.27 E35.23575
G1 X98.829 Y128.819 E35.3099
G1 X98.193 Y128.335 E35.38542
G1 X97.58 Y127.831 E35.46042
G1 X96.993 Y127.312 E35.53446
G1 X96.415 Y126.761 E35.60993
G1 X95.824 Y126.154 E35.68999
G1 X95.237 Y125.5 E35.77303
G1 X94.666 Y124.807 E35.85789
G1 X94.145 Y124.119 E35.93944
G1 X93.647 Y123.406 E36.02163
G1 X93.175 Y122.668 E36.10441
G1 X92.725 Y121.891 E36.18926
G1 X92.32 Y121.124 E36.27123
G1 X91.938 Y120.32 E36.35535
G1 X91.601 Y119.531 E36.43642
G1 X91.285 Y118.696 E36.52079
G1 X91.008 Y117.864 E36.60366
G1 X90.77 Y117.042 E36.68453
G1 X90.557 Y116.177 E36.76871
G1 X90.383 Y115.306 E36.85265
G1 X90.245 Y114.443 E36.93524
G1 X90.143 Y113.574 E37.01792
G1 X90.077 Y112.704 E37.10037
G1 X90.045 Y111.827 E37.18331
G1 X90.051 Y110.936 E37.26751
G1 X90.091 Y110.069 E37.34953
G1 X90.166 Y109.204 E37.43158
G1 X90.28 Y108.321 E37.51571
G1 X90.427 Y107.46 E37.59825
G1 X90.606 Y106.611 E37.68025
G1 X90.832 Y105.735 E37.76574
G1 X91.08 Y104.91 E37.84715
G1 X91.364 Y104.086 E37.92951
G1 X91.681 Y103.274 E38.01189
G1 X92.05 Y102.44 E38.09807
G1 X92.421 Y101.682 E38.17782
G1 X92.839 Y100.907 E38.26103
G1 X93.296 Y100.14 E38.3454
G1 X93.773 Y99.41 E38.42781
G1 X94.28 Y98.698 E38.51041
G1 X94.816 Y98.006 E38.59312
G1 X95.393 Y97.324 E38.67755
G1 X95.975 Y96.689 E38.75894
G1 X96.595 Y96.064 E38.84214
G0 F4320 X96.842 Y96.313
G1 F1800 X97.482 Y95.72 E38.92459
G1 X98.135 Y95.164 E39.00564
G1 X98.804 Y94.638 E39.08606
G1 X99.521 Y94.121 E39.16959
G1 X100.227 Y93.655 E39.24953
G1 X100.989 Y93.197 E39.33355
G1 X101.726 Y92.793 E39.41297
G1 X102.507 Y92.405 E39.49538
G1 X103.293 Y92.055 E39.57669
G1 X104.093 Y91.736 E39.65808
G1 X104.912 Y91.448 E39.74012
G1 X105.735 Y91.197 E39.82143
G1 X106.572 Y90.978 E39.90319
G1 X107.403 Y90.795 E39.9836
G1 X108.273 Y90.642 E40.06708
G1 X109.115 Y90.529 E40.14736
G1 X109.982 Y90.449 E40.22964
G1 X110.844 Y90.405 E40.3112
G1 X111.698 Y90.395 E40.39191
G1 X112.574 Y90.422 E40.47473
G1 X113.426 Y90.482 E40.55545
G1 X114.288 Y90.579 E40.63742
G1 X115.144 Y90.711 E40.71927
G1 X115.982 Y90.875 E40.79996
G1 X116.842 Y91.082 E40.88355
G1 X117.655 Y91.312 E40.9634
G1 X118.476 Y91.581 E41.04504
G1 X119.284 Y91.882 E41.12652
G1 X120.085 Y92.219 E41.20864
G1 X120.862 Y92.584 E41.28977
G1 X121.626 Y92.981 E41.37113
G1 X122.378 Y93.412 E41.45304
G1 X123.112 Y93.874 E41.535
G1 X123.824 Y94.364 E41.61668
G1 X124.516 Y94.885 E41.69853
G1 X125.181 Y95.428 E41.77966
G1 X125.824 Y95.998 E41.86086
G1 X126.449 Y96.6 E41.94287
G1 X127.042 Y97.218 E42.02381
G1 X127.614 Y97.867 E42.10556
G1 X128.165 Y98.547 E42.18827
G1 X128.673 Y99.228 E42.26855
G1 X129.16 Y99.939 E42.34999
G1 X129.626 Y100.685 E42.43311
G1 X130.051 Y101.433 E42.51441
G1 X130.444 Y102.194 E42.59535
G1 X130.81 Y102.979 E42.6772
G1 X131.14 Y103.769 E42.75811
